!!!COM: Beethoven, Ludwig van
!!!CDT: 1770///-1827///
!!!ODT: 1806///
!!!OTL: String Quartet No. 7 in F Major, Op. 59, No. 1
!!!OPS: Op. 59
!!!ONM: No. 1
!!!OMV: Mvmt. 2
!!!OMD: Allegretto vivace e sempre scherzando
!!!PDT: 1808///
!!!PPP: Vienna
!!!ODE: Dem Grafen Rasoumoffsky gewidmet
!!!ONB: Op. 59 are called the Rasumovsky Quartets
!!!MPD: 1806///
**kern	**dynam	**kern	**dynam	**kern	**dynam	**kern	**dynam
*staff4	*staff4	*staff3	*staff3	*staff2	*staff2	*staff1	*staff1
*Icello	*Icello	*Iviola	*Iviola	*Ivioln	*Ivioln	*Ivioln	*Ivioln
*clefF4	*clefF4	*clefC3	*clefC3	*clefG2	*clefG2	*clefG2	*clefG2
*k[b-e-]	*k[b-e-]	*k[b-e-]	*k[b-e-]	*k[b-e-]	*k[b-e-]	*k[b-e-]	*k[b-e-]
*B-:	*B-:	*B-:	*B-:	*B-:	*B-:	*B-:	*B-:
*M3/8	*M3/8	*M3/8	*M3/8	*M3/8	*M3/8	*M3/8	*M3/8
*MM92	*MM92	*MM92	*MM92	*MM92	*MM92	*MM92	*MM92
=1-	=1-	=1-	=1-	=1-	=1-	=1-	=1-
16BB-'/LL	pp	4.r	.	4.r	.	4.r	.
16BB-'/JJ	.	.	.	.	.	.	.
8BB-'/L	.	.	.	.	.	.	.
8BB-'/J	.	.	.	.	.	.	.
=2	=2	=2	=2	=2	=2	=2	=2
16BB-'/LL	.	4.r	.	4.r	.	4.r	.
16BB-'/JJ	.	.	.	.	.	.	.
8BB-'/L	.	.	.	.	.	.	.
8BB-'/J	.	.	.	.	.	.	.
=3	=3	=3	=3	=3	=3	=3	=3
16BB-'/LL	.	4.r	.	4.r	.	4.r	.
16BB-'/	.	.	.	.	.	.	.
16BB-'/	.	.	.	.	.	.	.
16BB-'/	.	.	.	.	.	.	.
16BB-'/	.	.	.	.	.	.	.
16BB-'/JJ	.	.	.	.	.	.	.
=4	=4	=4	=4	=4	=4	=4	=4
4.BB-'/	.	4.r	.	8r	.	4.r	.
.	.	.	.	16r	.	.	.
.	.	.	.	16f'/LL	.	.	.
.	.	.	.	16b-'/	pp	.	.
.	.	.	.	16dd'/JJ	.	.	.
=5	=5	=5	=5	=5	=5	=5	=5
4.r	.	4.r	.	16cc'/LL	.	4.r	.
.	.	.	.	16b-'/	.	.	.
.	.	.	.	16a'/	.	.	.
.	.	.	.	16g'/	.	.	.
.	.	.	.	16a'/	.	.	.
.	.	.	.	16f'/JJ	.	.	.
=6	=6	=6	=6	=6	=6	=6	=6
4.r	.	4.r	.	16b-'\LL	.	4.r	.
.	.	.	.	16dd'\JJ	.	.	.
.	.	.	.	8.ff^\L	.	.	.
.	.	.	.	16dd'\Jk	.	.	.
=7	=7	=7	=7	=7	=7	=7	=7
4.r	.	4.r	.	16cc'/LL	.	4.r	.
.	.	.	.	16a'/	.	.	.
.	.	.	.	16b-'/	.	.	.
.	.	.	.	16g'/	.	.	.
.	.	.	.	16cc'/	.	.	.
.	.	.	.	16en'/JJ	.	.	.
=8	=8	=8	=8	=8	=8	=8	=8
4.r	.	4.r	.	4.f/	.	4.r	.
=9	=9	=9	=9	=9	=9	=9	=9
4.r	.	16A-'/LL	pp	4.r	.	4.r	.
.	.	16A-'/JJ	.	.	.	.	.
.	.	8A-'/L	.	.	.	.	.
.	.	8A-'/J	.	.	.	.	.
=10	=10	=10	=10	=10	=10	=10	=10
4.r	.	16A-'/LL	.	4.r	.	4.r	.
.	.	16A-'/JJ	.	.	.	.	.
.	.	8A-'/L	.	.	.	.	.
.	.	8A-'/J	.	.	.	.	.
=11	=11	=11	=11	=11	=11	=11	=11
4.r	.	16A-'/LL	.	4.r	.	4.r	.
.	.	16A-'/	.	.	.	.	.
.	.	16A-'/	.	.	.	.	.
.	.	16A-'/	.	.	.	.	.
.	.	16A-'/	.	.	.	.	.
.	.	16A-'/JJ	.	.	.	.	.
=12	=12	=12	=12	=12	=12	=12	=12
4.r	.	4.A-/	.	4.r	.	8r	.
.	.	.	.	.	.	16r	.
.	.	.	.	.	.	16ee-'\LL	pp
.	.	.	.	.	.	16aa-'\	.
.	.	.	.	.	.	16ccc'\JJ	.
=13	=13	=13	=13	=13	=13	=13	=13
4.r	.	4.r	.	4.r	.	16bb-'\LL	.
.	.	.	.	.	.	16aa-'\	.
.	.	.	.	.	.	16gg'\	.
.	.	.	.	.	.	16ff'\	.
.	.	.	.	.	.	16gg'\	.
.	.	.	.	.	.	16ee-'\JJ	.
=14	=14	=14	=14	=14	=14	=14	=14
4.r	.	4.r	.	4.r	.	16aa-'\LL	.
.	.	.	.	.	.	16ccc'\J	.
.	.	.	.	.	.	8.eee-\	.
.	.	.	.	.	.	16ccc\Jk	.
=15	=15	=15	=15	=15	=15	=15	=15
4.r	.	4.r	.	4.r	.	16bb-'\LL	.
.	.	.	.	.	.	16gg'\	.
.	.	.	.	.	.	16aa-'\	.
.	.	.	.	.	.	16ff'\	.
.	.	.	.	.	.	16bb-'\	.
.	.	.	.	.	.	16dd'\JJ	.
=16	=16	=16	=16	=16	=16	=16	=16
4.r	.	4.r	.	4.r	.	4.ee-\	.
=17	=17	=17	=17	=17	=17	=17	=17
16c-'\LL	.	16e-'\LL	.	4.r	.	4.r	.
16c-'\JJ	.	16e-'\JJ	.	.	.	.	.
8c-'\L	.	8e-'\L	.	.	.	.	.
8c-'\J	.	8e-'\J	.	.	.	.	.
=18	=18	=18	=18	=18	=18	=18	=18
16c-'\LL	.	16e-'\LL	.	16cc-'\LL	.	4.r	.
16c-'\JJ	.	16e-'\JJ	.	16cc-'\JJ	.	.	.
8c-'\L	.	8e-'\L	.	8cc-'\L	.	.	.
8c-'\J	.	8e-'\J	.	8cc-'\J	.	.	.
=19	=19	=19	=19	=19	=19	=19	=19
16c-'\LL	.	16e-'\LL	.	16cc-'\LL	.	16gg-'\LL	.
16c-'\JJ	.	16e-'\JJ	.	16cc-'\JJ	.	16gg-'\JJ	.
8c-'\L	.	8e-'\L	.	8cc-'\L	.	8gg-'\L	.
8c-'\J	.	8e-'\J	.	8cc-'\J	.	8gg-'\J	.
=20	=20	=20	=20	=20	=20	=20	=20
16c-\LL	.	16e-\LL	.	16cc-\LL	.	16gg-\LL	.
16c-\	.	16e-\	.	16cc-\	.	16gg-\	.
16c-\	.	16e-\	.	16cc-\	.	16gg-\	.
16c-\	.	16e-\	.	16cc-\	.	16gg-\	.
16c-\	.	16e-\	.	16cc-\	.	16gg-\	.
16c-\JJ	.	16e-\JJ	.	16cc-\JJ	.	16gg-\JJ	.
=21	=21	=21	=21	=21	=21	=21	=21
[4.c\	f	[4.e-\	f	[4.a/	f	[4.ff\	f
=22	=22	=22	=22	=22	=22	=22	=22
4.c\]	.	4.e-\]	.	4.a/]	.	4.ff\]	.
=23	=23	=23	=23	=23	=23	=23	=23
(8B-\L	p	(8f\L	p	(8b-/L	p	(8dd\L	p
8F\	.	8e-\	.	8a/	.	8cc\	.
8G\J	.	8d\J	.	8g/J)	.	8b-\J	.
=24	=24	=24	=24	=24	=24	=24	=24
8E-\L	.	16.G/LL	.	(8g/L	.	16.ee-\LL	.
.	.	32c/JJk	.	.	.	32cc\JJk	.
8F\	.	8d\L	.	8f/	.	8b-/L	.
8E-\J)	.	8c\J)	.	8f/J)	.	8a/J)	.
=25	=25	=25	=25	=25	=25	=25	=25
(8D/L	.	(8B-/L	.	(8f/L	.	(8ff\L	.
8C/	.	8A/	.	8e-/	.	8ee-\	.
8BB-/J	.	8B-/J	.	8d/J	.	8dd\J	.
=26	=26	=26	=26	=26	=26	=26	=26
8EE-/L	.	16.e-\LL	.	16.g/LL	.	16.gg\LL	.
.	.	32c\JJk	.	32e-/JJk	.	32ee-\JJk	.
8FF/	.	8B-/L	.	8d/L	.	8dd\L	.
8EE-/J)	.	8A/J)	.	8c/J)	.	8cc\J)	.
=27	=27	=27	=27	=27	=27	=27	=27
(16.DD/LL	f	(16.B-\LL	f	16.f/LL	f	(16.ff\LL	f
32BB-/JJk)	.	32d\JJk)	.	32f/JJk	.	32dd\Jk)	.
8E-'\	.	8G'/	.	8g'/	.	8cc'\J	.
8r	.	8r	.	8r	.	8r	.
=28	=28	=28	=28	=28	=28	=28	=28
8r	.	8r	.	8r	.	8r	.
8F'\	.	8c'\	.	8e-'/	.	8a'/	.
8r	p	8r	p	8r	p	8r	p
=29	=29	=29	=29	=29	=29	=29	=29
16BB-/LL	ff	16F/LL	ff	16B-/LL 16d/	ff	16d/LL 16b-/	ff
16BB-/JJ	.	16F/JJ	.	16B-/JJ 16d/	.	16d/JJ 16b-/	.
8BB-/L	.	8F/L	.	8B-/L 8d/	.	8d/L 8b-/	.
8BB-/J	.	8F/J	.	8B-/J 8d/	.	8d/J 8b-/	.
=30	=30	=30	=30	=30	=30	=30	=30
16BB-/LL	.	16F/LL	.	16B-/LL 16d/	.	16d/LL 16b-/	.
16BB-/JJ	.	16F/JJ	.	16B-/JJ 16d/	.	16d/JJ 16b-/	.
8BB-/L	.	8F/L	.	8B-/L 8d/	.	8d/L 8b-/	.
8BB-/J	.	8F/J	.	8B-/J 8d/	.	8d/J 8b-/	.
=31	=31	=31	=31	=31	=31	=31	=31
16BB-/LL	.	16F/LL	.	16B-/LL 16d/	.	16d/LL 16b-/	.
16BB-/	.	16F/	.	16B-/ 16d/	.	16d/ 16b-/	.
16BB-/	.	16F/	.	16B-/ 16d/	.	16d/ 16b-/	.
16BB-/	.	16F/	.	16B-/ 16d/	.	16d/ 16b-/	.
16BB-/	.	16F/	.	16B-/ 16d/	.	16d/ 16b-/	.
16BB-/JJ	.	16F/JJ	.	16B-/JJ 16d/	.	16d/JJ 16b-/	.
=32	=32	=32	=32	=32	=32	=32	=32
4.B-\	.	4.f\	.	4.b-\	.	4.ddd\	.
=33	=33	=33	=33	=33	=33	=33	=33
16AA/LL	.	16F#/LL	.	16c/LL 16d/	.	16d/LL 16cc/	.
16AA/	.	16F#/	.	16c/ 16d/	.	16d/ 16cc/	.
16AA/	.	16F#/	.	16c/ 16d/	.	16d/ 16cc/	.
16AA/	.	16F#/	.	16c/ 16d/	.	16d/ 16cc/	.
16AA/	.	16F#/	.	16c/ 16d/	.	16d/ 16cc/	.
16AA/JJ	.	16F#/JJ	.	16c/JJ 16d/	.	16d/JJ 16cc/	.
=34	=34	=34	=34	=34	=34	=34	=34
4.A\	.	4.f#\	.	4.cc\	.	4.ddd\	.
=35	=35	=35	=35	=35	=35	=35	=35
4.r	.	4.r	.	16g/LL 16b-/	.	4.r	.
.	.	.	.	16g/ 16b-/	p	.	.
.	.	.	.	16g/ 16b-/	.	.	.
.	.	.	.	16g/ 16b-/	.	.	.
.	.	.	.	16g/ 16b-/	.	.	.
.	.	.	.	16g/JJ 16b-/	.	.	.
=36	=36	=36	=36	=36	=36	=36	=36
4.r	.	4.r	.	4.r	.	16cc#\LL 16een\	p
.	.	.	.	.	.	16cc#\ 16ee\	.
.	.	.	.	.	.	16cc#\ 16ee\	.
.	.	.	.	.	.	16cc#\ 16ee\	.
.	.	.	.	.	.	16cc#\ 16ee\	.
.	.	.	.	.	.	16cc#\JJ 16ee\	.
=37	=37	=37	=37	=37	=37	=37	=37
4.r	.	16c#\LL 16en\	p	4.r	.	4.r	.
.	.	16c#\ 16e\	.	.	.	.	.
.	.	16c#\ 16e\	.	.	.	.	.
.	.	16c#\ 16e\	.	.	.	.	.
.	.	16c#\ 16e\	.	.	.	.	.
.	.	16c#\JJ 16e\	.	.	.	.	.
=38	=38	=38	=38	=38	=38	=38	=38
16AA/LL	.	4.r	.	4.r	.	4.r	.
16AA/	p	.	.	.	.	.	.
16AA/	.	.	.	.	.	.	.
16AA/	.	.	.	.	.	.	.
16AA/	.	.	.	.	.	.	.
16AA/JJ	.	.	.	.	.	.	.
=39	=39	=39	=39	=39	=39	=39	=39
8DD/	.	16d\LL	.	16f/LL	.	8d/	.
.	.	16d\	.	16f/	.	.	.
8r	.	16d\	.	16f/	.	16r	.
.	.	16d\	.	16f/	.	16a'\LL	.
8r	.	16d\	.	16f/	.	16dd'\	.
.	.	16d\JJ	.	16f/JJ	.	16ff'\JJ	.
=40	=40	=40	=40	=40	=40	=40	=40
4.r	.	16en\LL	.	16g/LL	.	(16ff\LL	.
.	.	16e\	.	16g/	.	16een\JJ)	.
.	.	16e\	.	16g/	.	16.ee\LL	.
.	.	16e\	.	16g/	.	.	.
.	.	.	.	.	.	32dd\k	.
.	.	16e\	.	16g/	.	16.cc#\	.
.	.	16e\JJ	.	16g/JJ	.	.	.
.	.	.	.	.	.	32a\JJk	.
=41	=41	=41	=41	=41	=41	=41	=41
16r	.	16f\LL	.	16a/LL	.	(8dd\L	.
16A'/LL	.	16f\	.	16a/	.	.	.
16F'/	.	16f\	.	16a/	.	8ff\	.
16D'/	.	16f\	.	16a/	.	.	.
16AA'/	.	16f\	.	16a/	.	[8aa\J)	.
16FF'/JJ	.	16f\JJ	.	16a/JJ	.	.	.
=42	=42	=42	=42	=42	=42	=42	=42
8GG\L	.	16en\LL	.	16b-\LL	.	(16aa\LL]	.
.	.	16e\	.	16b-\	.	16gg\JJ)	.
8G\	.	16e\	.	16b-\	.	16.gg'\LL	.
.	.	16e\	.	16b-\	.	.	.
.	.	.	.	.	.	32ff'\k	.
8G#\J	.	16e\	.	16bn\	.	16.een'\	.
.	.	16e\JJ	.	16b\JJ	.	.	.
.	.	.	.	.	.	32cc'\JJk	.
=43	=43	=43	=43	=43	=43	=43	=43
8A\	.	8a\	.	8en/	.	(16dd\LL	.
.	.	.	.	.	.	16cc#\JJ)	.
8r	.	8r	.	8r	.	16cc#'\LL	.
.	.	.	.	.	.	16dd'\	.
8r	.	16r	.	16r	.	16een'\	.
.	.	16d'\	.	16f'/	.	16b-'\JJ	.
=44	=44	=44	=44	=44	=44	=44	=44
8r	.	8d#\	.	8en/	.	(16b-/LL	.
.	.	.	.	.	.	16a/JJ)	.
8r	.	8r	.	8r	.	16a'/LL	.
.	.	.	.	.	.	16g#'/	.
16r	.	16r	.	8r	.	16a'/	.
16BB-'/	.	16D'/	.	.	.	16g#'/JJ	.
=45	=45	=45	=45	=45	=45	=45	=45
8AA/	.	8C#/	.	4.r	.	16a'/LL	.
.	.	.	.	.	.	16b-'/	.
8r	.	8r	.	.	.	16a'/	.
.	.	.	.	.	.	16b-'/	.
8r	.	8r	.	.	.	16a'/	.
.	.	.	.	.	.	16b-'/JJ	.
=46	=46	=46	=46	=46	=46	=46	=46
4.d\	.	4.r	.	4.f/	.	8a'/L	.
.	.	.	.	.	.	(8a/	.
.	.	.	.	.	.	8bn/J	.
=47	=47	=47	=47	=47	=47	=47	=47
.	.	.	.	.	.	aq/LL	.
.	.	.	.	.	.	bq/JJ)	.
(8.c\L	.	(8.c\L	.	(8.en/L	.	(8cc'\L	.
.	.	.	.	.	.	8cc'\	.
16B-\L	.	16en\L	.	16g/L	.	.	.
16A\	.	16d\	.	16f/	.	8cc'\J)	.
16G\JJ)	.	16e\JJ)	.	16b-/JJ)	.	.	.
=48	=48	=48	=48	=48	=48	=48	=48
4F\	f	4f\	f	4a/	f	(8.cc\L	f
.	.	.	.	.	.	16cc#\L	.
(16F\LL	.	(16f\LL	.	(16g/LL	.	16dd\	.
16G\JJ	.	16d\JJ)	.	16f/JJ)	.	16b-\JJ)	.
=49	=49	=49	=49	=49	=49	=49	=49
8.A\L	p	(8c#'\L	p	(8en'/L	p	(8a'/L	p
.	.	8c#'\	.	8e'/	.	8a'/	.
16G\L	.	.	.	.	.	.	.
16F\	.	8c#'\J)	.	8e'/J)	.	8a'/J)	.
16En\JJ)	.	.	.	.	.	.	.
=50	=50	=50	=50	=50	=50	=50	=50
4.D\	.	8d\	.	4.f/	.	4a/	.
.	.	(8A/L	.	.	.	.	.
.	.	8Bn/J	.	.	.	[8ff\	.
=51	=51	=51	=51	=51	=51	=51	=51
.	.	Aq/L	.	.	.	.	.
.	.	Bq/Jk)	.	.	.	.	.
(8.C/L	.	(8c'\L	.	8r	.	16ff\LL]	.
.	.	.	.	.	.	(16dd\	.
.	.	8c'\	.	(8cc'\L	.	16een\	.
16BB-/L	.	.	.	.	.	16gg\	.
16AA/	.	8c'\J)	.	8cc'\J)	.	16ff\	.
16GG/JJ)	.	.	.	.	.	16bb-\JJ	.
=52	=52	=52	=52	=52	=52	=52	=52
4FF/	.	(8.c/L	.	(8.cc/L	.	16aa\LL	.
.	.	.	.	.	.	16een\	.
.	.	.	.	.	.	16ff\	.
.	.	8A/	.	8a/	.	16cc#\	.
(16FF/LL	.	.	.	.	.	16dd\	.
16GG/JJ)	.	16G/Jk)	.	16d/Jk)	.	16b-\JJ)	.
=53	=53	=53	=53	=53	=53	=53	=53
(8.AA/L	p	(8.En/L	p	8.c#/L	p	(8a'/L	p
.	.	.	.	.	.	8a'/	.
16GG/L	.	16A/Jk)	.	(16c#/L	.	.	.
16FF/	.	(16A/LL	.	16d/	.	8a'/J)	.
16EEn/JJ)	.	16c#/JJ)	.	16en/JJ)	.	.	.
=54	=54	=54	=54	=54	=54	=54	=54
8.DD/L	pp	16d'\LL	pp	16f'/LL	pp	16a'/LL	pp
.	.	16c#'\JJ	.	16en'/JJ	.	16a'/JJ	.
.	.	[4d\	.	[4f/	.	[4a/	.
16AA'/k	.	.	.	.	.	.	.
[8D/J	.	.	.	.	.	.	.
=55	=55	=55	=55	=55	=55	=55	=55
8D/L]	.	8d\L]	.	8f/L]	.	8a/L]	.
16AA'/L	.	16c#'\L	.	16en'/L	.	16a'/L	.
16DD'/JJ	.	16d'\JJ	.	16f'/JJ	.	16a'/JJ	.
[8AA/	.	[8c#\	.	[8e/	.	[8a/	.
=56	=56	=56	=56	=56	=56	=56	=56
8AA/]	.	8c#\]	.	8e/]	.	8a/L]	.
16DD'/LL	.	16d'\LL	.	16d'/LL	.	16A'/L 16a'/	.
16AA'/JJ	.	16c#'\JJ 16en'\	.	16g'/JJ	.	16A'/JJ 16a'/	.
[8D\	.	[8d\	.	[8f/	.	[8A/ [8a/	.
=57	=57	=57	=57	=57	=57	=57	=57
8D\]	.	8d\]	.	8f/L]	.	8A/L] 8a/]	.
16AA'/LL	.	16c#'\LL 16en'\	.	16g'/L	.	16A'/L 16a'/	.
16DD'/JJ	.	16d'\J	.	16f'/JJ	.	16A'/JJ 16a'/	.
8AA/	.	8c#\J	.	8en/	.	[8A/ [8a/	.
=58	=58	=58	=58	=58	=58	=58	=58
(8DD/	.	(8d\	.	(8f/	.	8A/] 8a/]	.
[4EE-/)	.	[4B-/)	.	[4e-/)	.	[4G/ [4g/	.
=59	=59	=59	=59	=59	=59	=59	=59
(8EE-/L]	.	(8B-/L]	.	8e-/L]	.	(8G/L] 8g/]	.
8AA/	.	8G/	.	(8c#/	.	8en/	.
8DD/J)	.	8F/J)	.	8d/J)	.	8f/J)	.
=60	=60	=60	=60	=60	=60	=60	=60
(16.D\LL	.	(16.D/LL	.	(16.d/LL	.	(16.d/LL	.
32E-\JJk)	.	32B-/JJk)	.	32G/JJk)	.	32g/JJk)	.
[4E-\	.	[4B-/	.	(8G/L	.	[4G/ [4g/	.
.	.	.	.	[8e-/J)	.	.	.
=61	=61	=61	=61	=61	=61	=61	=61
(8E-/L]	.	(8B-/L]	.	(8e-/L]	.	(8G/L] 8g/]	.
8AA/	.	8G/	.	8c#/	.	8en/	.
8D/J)	.	8F/J)	.	8d/J)	.	8f/J)	.
=62	=62	=62	=62	=62	=62	=62	=62
16DD/LL	.	16D/LL	.	16d/LL	.	16d/LL	.
16DD/JJ	.	16D/J	.	16d/JJ	.	16d/JJ	.
8DD/L	.	8D/	.	8d/L	.	8d/L	.
8DD/J	.	8D/J	.	8d/J	.	8d/J	.
=63	=63	=63	=63	=63	=63	=63	=63
16DD/LL	.	16D/LL	.	16d/LL	.	16d/LL	.
16DD/JJ	.	16D/JJ	.	16d/JJ	.	16d/JJ	.
8DD/L	.	8D/L	.	8d/L	.	8d/L	.
8DD/J	.	8D/J	.	8d/J	.	8d/J	.
=64	=64	=64	=64	=64	=64	=64	=64
16DD/LL	.	16D/LL	.	16d/LL	.	16d/LL	.
16DD/	.	16D/	.	16d/	.	16d/	.
16DD/	.	16D/	.	16d/	.	16d/	.
16DD/	.	16D/	.	16d/	.	16d/	.
16DD/	.	16D/	.	16d/	.	16d/	.
16DD/JJ	.	16D/JJ	.	16d/JJ	.	16d/JJ	.
=65	=65	=65	=65	=65	=65	=65	=65
(4.DD/	.	(4.D/	.	(4.d/	.	(4.d/	.
=66	=66	=66	=66	=66	=66	=66	=66
4.CC/	.	4.C/	.	4.c/	.	4.c/	.
=67	=67	=67	=67	=67	=67	=67	=67
4GG-/	.	4G-/	.	4g-/	.	4g-/	.
8FF/)	.	8F/)	.	8f/)	.	8f/)	.
=68	=68	=68	=68	=68	=68	=68	=68
16BB-'/LL	pp	4.B-/	pp	4.B-/	pp	4.B-/	pp
16BB-'/JJ	.	.	.	.	.	.	.
8BB-'/L	.	.	.	.	.	.	.
8BB-/J	.	.	.	.	.	.	.
=69	=69	=69	=69	=69	=69	=69	=69
16BB-/LL	.	4.r	.	4.r	.	4.r	.
16BB-/JJ	.	.	.	.	.	.	.
8BB-/L	.	.	.	.	.	.	.
8BB-/J	.	.	.	.	.	.	.
=70	=70	=70	=70	=70	=70	=70	=70
16BB-/LL	.	4.r	.	4.r	.	4.r	.
16BB-/	.	.	.	.	.	.	.
16BB-/	.	.	.	.	.	.	.
16BB-/	.	.	.	.	.	.	.
16BB-/	.	.	.	.	.	.	.
16BB-/JJ	.	.	.	.	.	.	.
=71	=71	=71	=71	=71	=71	=71	=71
4.BB-/	.	4.r	.	4.r	.	4.r	.
=72	=72	=72	=72	=72	=72	=72	=72
4.r	.	4.r	pp	16f'/LL	.	4.r	.
.	.	.	.	16b-'/	.	.	.
.	.	.	.	16dd'/	.	.	.
.	.	.	.	16b-'/	.	.	.
.	.	.	.	16cc'/	.	.	.
.	.	.	.	16a'/JJ	.	.	.
=73	=73	=73	=73	=73	=73	=73	=73
4.r	.	4.r	.	8b-\	.	4.r	.
.	.	.	.	4f/	.	.	.
=74	=74	=74	=74	=74	=74	=74	=74
4.r	.	16g'\LL	.	4.r	.	4.r	.
.	.	16f'\	.	.	.	.	.
.	.	16e-'\	.	.	.	.	.
.	.	16d'\	.	.	.	.	.
.	.	16c'\	.	.	.	.	.
.	.	16f'\JJ	.	.	.	.	.
=75	=75	=75	=75	=75	=75	=75	=75
4.r	pp	8d'\	.	4.r	.	4.r	.
.	.	4B-/	.	.	.	.	.
=76	=76	=76	=76	=76	=76	=76	=76
4.r	.	4.r	.	16d'/LL	.	4.r	.
.	.	.	.	16f'/	.	.	.
.	.	.	.	16b-'/	.	.	.
.	.	.	.	16dd'/	.	.	.
.	.	.	.	16cc'/	.	.	.
.	.	.	.	16a'/JJ	.	.	.
=77	=77	=77	=77	=77	=77	=77	=77
4.r	.	4.r	pp	16b-'\LL	.	4.r	.
.	.	.	.	16dd'\JJ	.	.	.
.	.	.	.	8.ff\L	.	.	.
.	.	.	.	16gg\Jk	.	.	.
=78	=78	=78	=78	=78	=78	=78	=78
4.r	.	16r	.	16ff'\LL	.	16r	.
.	.	16G/LL	.	16dd'\	.	16d/LL 16f/	.
.	.	16G/	.	16b-'\	.	16d/ 16f/	.
.	.	16G/J	.	16cc'\JJ	.	16d/JJ 16f/	.
.	.	(8G/J	.	8b-\	.	8d/ 8f/	.
=79	=79	=79	=79	=79	=79	=79	=79
.	.	.	.	aq/LL	.	.	.
.	.	.	.	b-q/JJ	.	.	.
4.r	.	16A/LL)	pp	[4.a/	pp	[4.c#/ [4.en/	.
.	.	16A/J	.	.	.	.	.
.	.	8A/	.	.	.	.	.
.	.	8A/J	.	.	.	.	.
=80	=80	=80	=80	=80	=80	=80	=80
4.r	.	16A/LL	.	4.a/_	.	4.c#/_ 4.e/_	.
.	.	16A/J	.	.	.	.	.
.	.	8A/	.	.	.	.	.
.	.	8A/J	.	.	.	.	.
=81	=81	=81	=81	=81	=81	=81	=81
4.r	.	16A/LL	.	4.a/_	.	4.c#/_ 4.e/_	.
.	.	16A/	.	.	.	.	.
.	.	16A/	.	.	.	.	.
.	.	16A/	.	.	.	.	.
.	.	16A/	.	.	.	.	.
.	.	16A/JJ	.	.	.	.	.
=82	=82	=82	=82	=82	=82	=82	=82
4.r	.	4.A/	.	4.a/]	.	4.c#/] 4.e/]	.
=83	=83	=83	=83	=83	=83	=83	=83
4.r	.	4.r	.	4.r	.	16een'\LL	.
.	.	.	.	.	.	16aa'\	.
.	.	.	.	.	.	16ccc#'\	.
.	.	.	.	.	.	16aa'\	.
.	.	.	.	.	.	16bbn'\	.
.	.	.	.	.	.	16aa-'\JJ	.
=84	=84	=84	=84	=84	=84	=84	=84
4.r	.	4.r	.	4.r	.	8aa'\	.
.	.	.	.	.	.	4een\	.
=85	=85	=85	=85	=85	=85	=85	=85
4.r	.	4.r	.	16ff#'\LL	.	4.r	.
.	.	.	.	16een'\	.	.	.
.	.	.	.	16dd'\	.	.	.
.	.	.	.	16cc#'\	.	.	.
.	.	.	.	16b-'\	.	.	.
.	.	.	.	16ee'\JJ	.	.	.
=86	=86	=86	=86	=86	=86	=86	=86
4.r	.	4.r	.	8cc#\	.	4.r	.
.	.	.	.	4a/	.	.	.
=87	=87	=87	=87	=87	=87	=87	=87
4.r	.	4.r	.	4.r	.	16fffn'\LL	.
.	.	.	.	.	.	16eeen'\	.
.	.	.	.	.	.	16ddd'\	.
.	.	.	.	.	.	16ccc'\	.
.	.	.	.	.	.	16bbn'\	.
.	.	.	.	.	.	16ddd'\JJ	.
=88	=88	=88	=88	=88	=88	=88	=88
4.r	.	4.r	.	4r	.	16gg#'\LL	.
.	.	.	.	.	.	16bbn'\	.
.	.	.	.	.	.	16ff'\	.
.	.	.	.	.	.	16een'\	.
.	.	.	.	16b-'\LL	.	16bb-'\	.
.	.	.	.	16a'/JJ	.	16aa'\JJ	.
=89	=89	=89	=89	=89	=89	=89	=89
4.r	.	4r	.	16gn'/LL	.	16gg'\LL	.
.	.	.	.	16f'/	.	16ff'\	.
.	.	.	.	16en'/	.	16een'\	.
.	.	.	.	16d'/	.	16dd'\	.
.	.	16c#\LL	.	16c#'/	.	16cc#'\	.
.	.	16en\JJ	.	16e'/JJ	.	16ee'\JJ	.
=90	=90	=90	=90	=90	=90	=90	=90
.	.	c#q/	.	.	.	ccq/	.
8r	pp	16B-/LL	.	4.r	.	(16b-/LL	.
.	.	16A/JJ	.	.	.	16a/JJ)	.
Cq/	.	.	.	.	.	cq/	.
(16BB-/LL	.	8r	.	.	.	(16B-/LL	.
16AA/)	.	.	.	.	.	16A/JJ)	.
Cq/	.	.	.	.	.	cq/	.
(16BB-/	.	8r	.	.	.	(16B-/LL	.
16AA/JJ)	.	.	.	.	.	16A/JJ)	.
=91	=91	=91	=91	=91	=91	=91	=91
*	*	*	*	*	*	*^	*
16D\LL	.	4.r	.	4.r	.	16d/LL	16d\LL	.
16D\	.	.	.	.	.	16d/JJ	16d\JJ	.
16D\JJ	.	.	.	.	.	8d/L	8d\L	.
16r	.	.	.	.	.	.	.	.
8r	.	.	.	.	.	8d/J	8d\J	.
=92	=92	=92	=92	=92	=92	=92	=92	=92
16c\LL	.	16f#\LL	.	16ee-\LL	.	16d/LL	16d\LL	.
16c\	.	16f#\	.	16ee-\	.	16d/JJ	16d\JJ	.
16c\JJ	.	16f#\JJ	.	16ee-\JJ	.	8d/L	8d\L	.
16r	.	16r	.	16r	.	.	.	.
8r	.	8r	.	8r	.	8d/J	8d\J	.
=93	=93	=93	=93	=93	=93	=93	=93	=93
16B-\LL	.	16g\LL	.	16dd\LL	.	16d/LL	16d\LL	.
16B-\	.	16g\	.	16dd\	.	16d/JJ	16d\J	.
16B-\JJ	.	16g\JJ	.	16dd\JJ	.	8d/L	8d\	.
16r	.	16r	.	16r	.	.	.	.
8r	.	8r	.	8r	.	8d/J	8d\J	.
=94	=94	=94	=94	=94	=94	=94	=94	=94
4.D\ 4.B-\	.	4.cc#\	.	4.gg\	.	16d/LL	16d\LL	.
.	.	.	.	.	.	16d/	16d\	.
.	.	.	.	.	.	16d/	16d\	.
.	.	.	.	.	.	16d/	16d\	.
.	.	.	.	.	.	16d/	16d\	.
.	.	.	.	.	.	16d/JJ	16d\JJ	.
*	*	*	*	*	*	*v	*v	*
=95	=95	=95	=95	=95	=95	=95	=95
8D\ 8A\	.	8dd\L	.	8gg-\	.	16d/LL 16dd/	.
.	.	.	.	.	.	16d/JJ 16dd/	.
8r	.	16f#\L	.	16aa\LL	.	8d/L 8dd/	.
.	.	16f#\JJ	.	16aa\JJ	.	.	.
16D\LL	.	8r	.	8r	.	8d/J 8dd/	.
16D\JJ	.	.	.	.	.	.	.
=96	=96	=96	=96	=96	=96	=96	=96
8r	.	16f#\LL	.	16aa\LL	.	16d/LL 16dd/	.
.	.	16f#\JJ	.	16aa\JJ	.	16d/JJ 16dd/	.
16C/LL	.	8r	.	8r	.	8d/L 8dd/	.
16C/JJ	.	.	.	.	.	.	.
8r	.	16f#\LL	.	16aa\LL	.	8d/J 8dd/	.
.	.	16f#\JJ	.	16aa\JJ	.	.	.
=97	=97	=97	=97	=97	=97	=97	=97
16BB-/LL	.	8r	.	8r	.	16d/LL 16dd/	.
16BB-/JJ	.	.	.	.	.	16d/JJ 16dd/	.
8r	.	16g\LL	.	16bb-\LL	.	8d/L 8dd/	.
.	.	16g\JJ	.	16bb-\JJ	.	.	.
16GG/LL	.	8r	.	8r	.	8d/J 8dd/	.
16GG/JJ	.	.	.	.	.	.	.
=98	=98	=98	=98	=98	=98	=98	=98
16GG/LL 16D/	.	16g\LL 16b-\	.	16een\LL 16ccc#\	.	16d/LL 16dd/	.
16GG/ 16D/	.	16g\ 16b-\	.	16ee\ 16ccc#\	.	16d/ 16dd/	.
16GG/ 16D/	.	16g\ 16b-\	.	16ee\ 16ccc#\	.	16d/ 16dd/	.
16GG/ 16D/	.	16g\ 16b-\	.	16ee\ 16ccc#\	.	16d/ 16dd/	.
16GG/ 16D/	.	16g\ 16b-\	.	16ee\ 16ccc#\	.	16d/ 16dd/	.
16GG/JJ 16D/	.	16g\JJ 16b-\	.	16ee\JJ 16ccc#\	.	16d/JJ 16dd/	.
=99	=99	=99	=99	=99	=99	=99	=99
16DD/LL	pp	16D/LL	.	16ddd\LL	pp	8d/ 8dd/	.
16DD/	.	16D/	.	16d\JJ	.	.	.
16DD/	.	16D/	.	16d/LL	.	8r	.
16DD/	.	16D/	.	16d/	.	.	.
16DD/	.	16D/	.	16d/	.	8r	.
16DD/JJ	.	16D/JJ	.	16d/JJ	.	.	.
=100	=100	=100	=100	=100	=100	=100	=100
16CC/LL	.	16C/LL	.	16c/LL	.	4r	.
16CC/	.	16C/	.	16c/	.	.	.
16GG-/	.	16G-/	.	16g-/	.	.	.
16GG-/	.	16G-/	.	16g-/	.	.	.
16FF/	.	16F/	.	16f/	.	16ee-\LL 16ff\	.
16FF/JJ	.	16F/JJ	.	16f/JJ	.	16ee-\JJ 16ff\	.
=101	=101	=101	=101	=101	=101	=101	=101
16BB-/LL 16D/	ff	16F/LL 16f/	ff	16f'/LL	ff	16ff'\LL	ff
16BB-/JJ 16D/	.	16F/JJ 16f/	.	16b-'/	.	16bb-'\	.
8BB-/L 8D/	.	8F/L 8f/	.	16dd'/	.	16ddd'\	.
.	.	.	.	16b-'/	.	16bb-'\	.
8BB-/J 8E-/	.	8F/J 8f/	.	16cc'/	.	16ccc'\	.
.	.	.	.	16a'/JJ	.	16aa'\JJ	.
=102	=102	=102	=102	=102	=102	=102	=102
16BB-/LL 16D/	.	16F/LL 16f/	.	8b-\	.	8bb-'\	.
16BB-/ 16D/	.	16F/JJ 16f/	.	.	.	.	.
16BB-/ 16D/	.	8F/L 8f/	.	4f/	.	4ff\	.
16BB-/ 16D/	.	.	.	.	.	.	.
16BB-/ 16D/	.	8F/J 8f/	.	.	.	.	.
16BB-/JJ 16D/	.	.	.	.	.	.	.
=103	=103	=103	=103	=103	=103	=103	=103
16BB-/LL 16E-/	.	16F/LL 16f/	.	16g'/LL	.	16gg'\LL	.
16BB-/ 16E-/	.	16F/ 16f/	.	16f'/	.	16ff'\	.
16BB-/ 16E-/	.	16F/ 16f/	.	16e-'/	.	16ee-'\	.
16BB-/ 16E-/	.	16F/ 16f/	.	16d'/	.	16dd'\	.
16BB-/ 16E-/	.	16F/ 16f/	.	16c'/	.	16cc'\	.
16BB-/JJ 16E-/	.	16F/JJ 16f/	.	16f'/JJ	.	16ff'\JJ	.
=104	=104	=104	=104	=104	=104	=104	=104
16BB-'\LL 16D'\	.	16F'/LL 16f'/	.	8d'/	.	8dd'\	.
16F'\JJ	.	16B-'/	.	.	.	.	.
16B-'\LL	.	16d'/	.	4B-/	.	4b-\	.
16d'\	.	16f'/	.	.	.	.	.
16c'\	.	16e-'/	.	.	.	.	.
16A'\JJ	.	16c'/JJ	.	.	.	.	.
=105	=105	=105	=105	=105	=105	=105	=105
16B-\LL	.	16d/LL	.	16d/LL	.	16dd'\LL	.
16F\	.	16B-/	.	16f/	.	16ff'\	.
16D\	.	16F/	.	16b-/	.	16bb-'\	.
16BB-\	.	16D/	.	16dd/	.	16ddd'\	.
16E-\	.	16F/	.	16cc/	.	16ccc'\	.
16E-\JJ	.	16F/JJ	.	16a/JJ	.	16aa'\JJ	.
=106	=106	=106	=106	=106	=106	=106	=106
16D\LL	.	16F/	.	16b-\LL	.	16bb-'\LL	.
16F\	.	16B-\LL	.	16dd\JJ	.	16ddd'\JJ	.
16B-\	.	16d\	.	8.ff\L	.	8.fff\L	.
16d\	.	16f\	.	.	.	.	.
16c\	.	16e-\	.	.	.	.	.
16A\JJ	.	16c\JJ	.	16gg\Jk	.	16ggg\Jk	.
=107	=107	=107	=107	=107	=107	=107	=107
16B-\LL	.	16d/LL	.	16ff'\LL	.	16fff'\LL	.
16BB-\JJ	.	16D/	.	16dd'\	.	16ddd'\	.
16B-\LL	.	16d/	.	16b-'\	.	16bb-'\	.
16B-\	.	16d/JJ	.	16cc'\JJ	.	16ccc'\JJ	.
16B-\	.	16d/LL	.	8b-\	.	8bb-\	.
16B-\JJ	.	16d/JJ	.	.	.	.	.
=108	=108	=108	=108	=108	=108	=108	=108
.	.	.	.	aq/LL	.	aaq/LL	.
.	.	.	.	b-q/JJ	.	bb-q/JJ	.
16c#\LL	.	16en\LL	.	4a/	.	4aa\	.
16c#\	.	16e\	.	.	.	.	.
16c#\	.	16e\	.	.	.	.	.
16c#\	.	16e\	.	.	.	.	.
16c#\	p	16e\	p	16aa'\LL	p	8r	.
16c#\JJ	.	16e\JJ	.	16bb-'\JJ	.	.	.
=109	=109	=109	=109	=109	=109	=109	=109
16d\LL	.	16f\LL	.	16aa'\LL	.	4.r	.
16d\	.	16f\	.	16ff'\	.	.	.
16d\	.	16f\	.	16dd'\	.	.	.
16d\	.	16f\	.	16een'\JJ	.	.	.
16d\	.	16f\	.	8dd\	.	.	.
16d\JJ	.	16f\JJ	.	.	.	.	.
=110	=110	=110	=110	=110	=110	=110	=110
.	.	.	.	cc-q/LL	.	.	.
.	.	.	.	dd#q/JJ	.	.	.
16en\LL	.	16g\LL	.	4cc\	.	4r	.
16e\	.	16g\	.	.	.	.	.
16e\	.	16g\	.	.	.	.	.
16e\	.	16g\	.	.	.	.	.
16e\	f	16g\	f	16cc\LL	f	16ccc'\LL	f
16e\JJ	.	16g\JJ	.	16dd\JJ	.	16ddd'\JJ	.
=111	=111	=111	=111	=111	=111	=111	=111
16f\LL	.	16a/LL	.	16cc/LL	.	16ccc'\LL	.
(32F\L	.	32A/L	.	16a/	.	16aa'\	.
32G\JJJ)	.	32B-/JJJ	.	.	.	.	.
16A\LL	.	16c/LL	.	16f/	.	16ff'\	.
16F\	.	16A/	.	16g/JJ	.	16gg'\JJ	.
16Bn\	.	16d-/	.	8f/	.	8ff\	.
16G\JJ	.	16Bn/JJ	.	.	.	.	.
=112	=112	=112	=112	=112	=112	=112	=112
8c\	.	8en\	.	16en'/LL	.	16een'\LL	.
.	.	.	.	16c'/JJ	.	16cc'\JJ	.
8r	.	8r	.	16a'/LL	.	8r	.
.	.	.	.	16g'/JJ	.	.	.
8r	.	8r	.	8r	.	16en'/LL	.
.	.	.	.	.	.	16c'/JJ	.
=113	=113	=113	=113	=113	=113	=113	=113
4r	.	8r	.	16A'/LL	.	4.r	.
.	.	.	.	16G'/JJ	.	.	.
.	.	16En'/LL	.	8r	.	.	.
.	.	16C'/JJ	.	.	.	.	.
16AA'/LL	.	8r	.	8r	.	.	.
16GG'/JJ	.	.	.	.	.	.	.
=114	=114	=114	=114	=114	=114	=114	=114
4.CC/	.	4.r	.	4.r	.	4.r	.
=115	=115	=115	=115	=115	=115	=115	=115
4.r	.	4.r	.	4.r	p	(16.f/LL	.
.	.	.	.	.	.	32g/JJk	.
.	.	.	.	.	.	8a-/L	.
.	.	.	.	.	.	8b-/J)	.
=116	=116	=116	=116	=116	=116	=116	=116
8r	.	8r	.	4r	.	4cc\	.
[4F\	f	(4A-/	f	.	.	.	.
.	.	.	.	(8c/	f	(8dd-\	.
=117	=117	=117	=117	=117	=117	=117	=117
4F\]	.	4B-/	.	4d-/	.	16ee-\LL)	f
.	.	.	.	.	.	16dd-'\	.
.	.	.	.	.	.	16cc'\	.
.	.	.	.	.	.	16b-'\JJ	.
[8F\	.	[8c\)	.	(8en/)	.	16a-'/LL	.
.	.	.	.	.	.	16g'/JJ	.
=118	=118	=118	=118	=118	=118	=118	=118
8F\]	p	8c\]	p	8f/)	p	16a-'/LL	.
.	.	.	.	.	.	16g'/	p
8r	.	8r	.	16r	.	16f'/JJ	.
.	.	.	.	16dd-'\LL	.	16r	.
8r	.	8r	.	16cc'\	.	8r	.
.	.	.	.	16b-'\JJ	.	.	.
=119	=119	=119	=119	=119	=119	=119	=119
8r	.	4r	.	16a-/LL	.	(16.ff\LL	.
.	.	.	.	16g/JJ	.	.	.
.	.	.	.	.	.	32gg\JJk	.
16r	.	.	.	8f\L	.	8aa-\L	.
(16d-\LL	.	.	.	.	.	.	.
16c\)	.	8f\	.	8ff\J	.	8bb-\J)	.
16B-\JJ	.	.	.	.	.	.	.
=120	=120	=120	=120	=120	=120	=120	=120
16A-\LL	.	4f\	.	8ff\L	.	4ccc\	.
16G\	.	.	.	.	.	.	.
16F\	.	.	.	8a-\	.	.	.
16E-\	.	.	.	.	.	.	.
16D-\	.	8f\	.	8a-\J	.	(8ddd-\	.
16C\JJ	.	.	.	.	.	.	.
=121	=121	=121	=121	=121	=121	=121	=121
(8BB-/	.	(8f\	.	8.g/L	.	16eee-'\LL)	.
.	.	.	.	.	.	16ddd-'\	.
4C/)	.	16en\)	.	.	.	16ccc'\	.
.	.	16G/LL	.	16b-/L	.	16bb-'\	.
.	.	16c/	.	16a-/	.	16aa-'\	.
.	.	16B-/JJ	.	16en/JJ 16cc/	.	16gg'\JJ	.
=122	=122	=122	=122	=122	=122	=122	=122
8FF/L	.	8A-/	p	8f/	.	8ff\	p
8F/J	p	8r	.	8r	p	8r	.
8r	.	(8F/	.	8A-/	.	(8a-/	.
=123	=123	=123	=123	=123	=123	=123	=123
8CC/L	.	(8En/L)	.	8G/L	.	16.g/LL	.
.	.	.	.	.	.	32f/JJk	.
8C'/	.	8G/	.	8B-/	.	8en/L)	.
8C'/J	.	8E/J)	.	8B-/J	.	8g/J	.
=124	=124	=124	=124	=124	=124	=124	=124
8F'/L	.	(4F/	.	(4A-/	.	(4f/	.
(8FF/	.	.	.	.	.	.	.
8DD/J	.	(8A-/)	.	(8c/)	.	8cc\)	.
=125	=125	=125	=125	=125	=125	=125	=125
8EE-/L)	.	(8G/L)	.	8B-/L)	.	(16.b-/LL	.
.	.	.	.	.	.	32a-/JJk	.
8E-'/	.	8B-/	.	8d-/	.	8g/L	.
8E-'/J	.	8G/J)	.	8d-/J	.	8b-/J)	.
=126	=126	=126	=126	=126	=126	=126	=126
8A-'/L	.	(4A-/	.	(4c/	.	(4a-/	.
(8AA-/	.	.	.	.	.	.	.
8FF#/J	.	8c\)	.	(8e-/)	.	8ee-\	.
=127	=127	=127	=127	=127	=127	=127	=127
8GG/L)	.	(8Bn\L	.	8d/L	.	16.dd\LL	.
.	.	.	.	.	.	32cc\JJk	.
8G'/	.	8d\	.	8f/	.	8bn\L	.
8G'/J	.	8f\J)	.	8bn/J)	.	8dd\J)	.
=128	=128	=128	=128	=128	=128	=128	=128
(8C\L	.	8e-\	.	(16.cc\LL	.	8cc\L	.
.	.	.	.	32dd\Jk	.	.	.
8c\	.	8r	.	8ee-\	.	8ccc\	.
8d\J)	.	8r	.	8ff\J)	.	8ccc\J	.
=129	=129	=129	=129	=129	=129	=129	=129
4e-\	.	4.r	.	(4gg\	.	4ccc\	.
(8f\	f	.	.	8aa-\	f	[8ccc\	f
=130	=130	=130	=130	=130	=130	=130	=130
16g\LL)	.	16r	.	16bb-\LL	.	16ccc\LL]	.
16f'\	.	16c'\LL	.	16aa-'\)	.	16ccc'\	.
16e-'\	.	16cc'\	.	16gg'\	.	16ccc'\	.
16A-'\	.	16c'\	.	16ff'\	.	16ccc'\	.
16G'\	.	16g'\	.	16ee-'\	.	16ccc'\	.
16GG'\JJ	.	16f'\JJ	.	16dd'\JJ	.	16bbn'\JJ	.
=131	=131	=131	=131	=131	=131	=131	=131
16C/	.	16en'\LL	.	16cc'\LL	.	16ccc'\LL	.
16c'\LL	.	16dd-'\	.	16ff'\	.	16bb-'\	.
16c'\	.	16cc'\	.	16ee-'\	.	16aa-'\	.
16c'\	.	16b-'\	.	16dd-'\	.	16gg'\	.
16c'\	.	16a-'\	.	16cc'\	.	16ff'\	.
16c'\JJ	.	16g'\JJ	.	16b-'\JJ	.	16een'\JJ	.
=132	=132	=132	=132	=132	=132	=132	=132
8.f\	.	(16.a-\LL	.	(16.cc\LL	.	(16.ff\LL	.
.	.	32g\JJk)	.	32b-\JJk)	.	32gg\JJk	.
.	.	16f\LL	.	16a-\LL	.	8aa-\L	.
16d-\LL	.	16f\	.	16ff\	.	.	.
16c\	.	16f\	.	16ff\	.	8bb-\J)	.
16B-\JJ	.	16f\JJ	.	16ff\JJ	.	.	.
=133	=133	=133	=133	=133	=133	=133	=133
16A-\LL	.	16f\LL	.	16ff\LL	.	4ccc\	.
16G\	.	16f\	.	16a-\	.	.	.
16F\	.	16f\	.	16a-\	.	.	.
16E-\	.	16f\	.	16a-\	.	.	.
16D-\	.	16f\	.	16a-\	.	(8ddd-\	.
16C\JJ	.	16f\JJ	.	16a-\JJ	.	.	.
=134	=134	=134	=134	=134	=134	=134	=134
(8BB-/	.	16f\LL	.	16g/LL	.	16eee-\LL)	.
.	.	16f\	.	16g/	.	16ddd-\	.
4C/)	.	16en\	.	16g/	.	16ccc\	.
.	.	16e\	.	16en/ 16cc/	.	16bb-\	.
.	.	16g\	.	16e/ 16cc/	.	16aa-\	.
.	.	16g\JJ	.	16e/JJ 16cc/	.	16gg\JJ	.
=135	=135	=135	=135	=135	=135	=135	=135
8FF/	.	8a-\	.	8f/ 8cc/	.	16ff/LL	.
.	.	.	.	.	.	16c/	.
8r	.	8r	.	8r	p	16c/	.
.	.	.	.	.	.	16c/	.
(8A-\	p	8r	.	8r	.	16c/	.
.	.	.	.	.	.	16c/JJ	.
=136	=136	=136	=136	=136	=136	=136	=136
16.G\LL	.	4r	.	8r	.	16B-/LL	.
.	.	.	.	.	.	16c/	.
32F\Jk	.	.	.	.	.	.	.
8En\	.	.	.	8r	.	16G/	.
.	.	.	.	.	.	16c/	.
8G\J)	.	(8B-/	p	(8en/	p	16cc/	.
.	.	.	.	.	.	16cc/JJ	.
=137	=137	=137	=137	=137	=137	=137	=137
4F\	.	16.A-/LL	.	16.f/LL	.	16cc\LL	.
.	.	.	.	.	.	16cc\	.
.	.	32G/JJk	.	32g/Jk	.	.	.
.	.	8F/)	.	8a-/J)	.	16cc\	.
.	.	.	.	.	.	16cc\JJ	.
(8c\	.	8r	.	8r	.	16e-/LL	.
.	.	.	.	.	.	16e-/JJ	.
=138	=138	=138	=138	=138	=138	=138	=138
16.B-\LL	.	4r	.	8r	.	16d-/LL	.
.	.	.	.	.	.	16e-/	.
32A-\Jk	.	.	.	.	.	.	.
8G\	.	.	.	8r	.	16B-/	.
.	.	.	.	.	.	16e-/JJ	.
8B-\J)	.	(8d-\	.	(8g/	.	16ee-\LL	.
.	.	.	.	.	.	16ee-\JJ	.
=139	=139	=139	=139	=139	=139	=139	=139
4A-/	.	16.c/LL	.	16.a-/LL	.	16ee-\LL	.
.	.	.	.	.	.	16ee-\	.
.	.	32B-/JJk	.	32b-/JJk	.	.	.
.	.	8A-/)	.	8cc/)	.	16ee-\	.
.	.	.	.	.	.	16ee-\JJ	.
*clefC4	*clefG2	*	*	*	*	*	*
(8e-\	.	8r	.	8r	.	16g/LL	.
.	.	.	.	.	.	16g/JJ	.
=140	=140	=140	=140	=140	=140	=140	=140
16.d\LL	.	4r	.	8r	.	16f/LL	.
.	.	.	.	.	.	16g/	.
32c\Jk	.	.	.	.	.	.	.
8Bn\	.	.	.	8r	.	16d/	.
.	.	.	.	.	.	16g/JJ	.
8d\J)	.	8f\	.	8bn\	.	16gg\LL	.
.	.	.	.	.	.	16gg\JJ	.
=141	=141	=141	=141	=141	=141	=141	=141
(16.c\LL	.	(16.e-\LL	.	(16.cc\LL	.	16gg\LL	.
.	.	.	.	.	.	16ccc\JJ	.
32d\Jk	.	32f\Jk	.	32bn\Jk	.	.	.
8e-\	.	8g\	.	8cc\	.	16ccc\LL	.
.	.	.	.	.	.	16ccc\	.
8f\J	.	8a-\J	.	8dd\J	.	16ccc\	.
.	.	.	.	.	.	16ccc\JJ	.
=142	=142	=142	=142	=142	=142	=142	=142
4g\)	.	4b-\)	.	4een\)	.	16ccc\LL	.
.	.	.	.	.	.	16ccc\	.
.	.	.	.	.	.	16ccc\	.
.	.	.	.	.	.	16ccc\JJ	.
(8a-\	f	(8cc\	f	(8ff\	f	16ccc\LL	f
.	.	.	.	.	.	16ccc\JJ	.
=143	=143	=143	=143	=143	=143	=143	=143
16b-\LL)	.	16dd-\LL)	.	16gg\LL)	.	16ccc'\LL	.
16a-'\	.	16cc'\	.	16ff'\	.	16ccc'\	.
16g'\	.	16b-'\	.	16ee-'\	.	16ccc'\	.
16f'\	.	16a-'\	.	16dd'\	.	16ccc'\	.
16e-'\	.	16g'\	.	16cc'\	.	16ccc'\	.
16d'\JJ	.	16f'\JJ	.	16bn'\JJ	.	16ccc'\JJ	.
=144	=144	=144	=144	=144	=144	=144	=144
*clefF4	*clefF4	*	*	*	*	*	*
16e-'\LL	.	16g'\LL	.	16cc'/LL	.	16ccc'\LL	.
16d-'\	.	16f'\	.	16b-'/	.	16cc'\	.
16c'\	.	16e-'\	.	16a-'/	.	16cc'\	.
16B-'\	.	16d-'\	.	16g'/	.	16cc'\	.
16A-'\	.	16c'\	.	16f'/	.	16dd'\	.
16G'\JJ	.	16B-'\JJ	.	16en'/JJ	.	16een'\JJ	.
=145	=145	=145	=145	=145	=145	=145	=145
16A-'\LL	.	16c'\LL	.	(16.f/LL	.	(16.ff\LL	.
16G'\	.	16B-'\	.	.	.	.	.
.	.	.	.	32en/Jk	.	32gg\JJk	.
16F'\	.	16A-'\	.	8a-/	.	8aa-\L	.
16d-'\	.	16f'\	.	.	.	.	.
16c'\	.	16e-'\	.	8b-/J)	.	8bb-\J)	.
16B-'\JJ	.	16d-'\JJ	.	.	.	.	.
=146	=146	=146	=146	=146	=146	=146	=146
16A-'\LL	.	16c'/LL	.	4cc\	.	4ccc\	.
16G'\	.	16B-'/	.	.	.	.	.
16F'\	.	16A-'/	.	.	.	.	.
16E-'\	.	16G-'/	.	.	.	.	.
16D-'\	.	16F'/	.	(8dd-\	.	(8ddd-\	.
16C'\JJ	.	16E-'/JJ	.	.	.	.	.
=147	=147	=147	=147	=147	=147	=147	=147
16BB-'/LL	.	16D-'/LL	.	16ee-'\LL)	.	16eee-\LL)	.
16GG'/	.	16F'/	.	16dd-'\	.	16ddd-'\	.
16C'/	.	16En'/	.	16cc'\	.	16ccc'\	.
16CC'/	.	16G'/	.	16b-'\	.	16bb-'\	.
16DD'/	.	16c'/	.	16a-'\	.	16aa-'\	.
16EEn'/JJ	.	16c'/JJ	.	16g'\JJ	.	16gg'\JJ	.
=148	=148	=148	=148	=148	=148	=148	=148
8FF/	p	8F/	p	8a-\L	p	16aa-'\LL	p
.	.	.	.	.	.	16gg'\	.
8r	.	8r	.	16r	.	16ff'\JJ	.
.	.	.	.	16dd-'\L	.	16r	.
8r	.	16r	.	16cc'\	.	8r	.
.	.	16c\	.	16b-'\JJ	.	.	.
=149	=149	=149	=149	=149	=149	=149	=149
8r	.	8f\	.	16a-'/LL	.	4.r	.
.	.	.	.	16g'/	.	.	.
8r	.	16r	.	16f'/JJ	.	.	.
.	.	16d-'\LL	.	16r	.	.	.
16r	.	16c'\	.	8r	.	.	.
16C/	.	16B-'\JJ	.	.	.	.	.
=150	=150	=150	=150	=150	=150	=150	=150
8F\	.	16A-'/LL	.	8f/	.	8r	.
.	.	16G'/	.	.	.	.	.
16r	.	16F'/JJ	.	8r	.	8r	.
16D-'/LL	.	16r	.	.	.	.	.
16C'/	.	8r	.	8r	.	16r	pp
16BB-'/JJ	.	.	.	.	.	16cc\	.
=151	=151	=151	=151	=151	=151	=151	=151
16AA-'/LL	pp	16c\LL	pp	16A-/LL	.	16ff\LL	.
16GG'/J	.	16c\J	.	16f/JJ	.	16a-\JJ	.
8FF'/	.	8c\	.	8f/L	.	8a-/L	.
8D-/J	.	8d-\J	.	8f/J	.	8a-/J	.
=152	=152	=152	=152	=152	=152	=152	=152
16BB-/LL	.	16d-\LL	.	16f/LL	.	16g/LL	.
16BB-/J	.	16d-\J	.	16f/JJ	.	16g/JJ	.
8GG/	.	8B-\	.	8f/L	.	8g/L	.
8C/J	.	8B-\J	.	8en/J	.	8g/J	.
=153	=153	=153	=153	=153	=153	=153	=153
16F\LL	.	16c\LL	.	16f/LL	.	16a-\LL	.
16F\	.	16c\	.	16ff\	.	16aa-\	.
16D-\	.	16d-\	.	16ff\	.	16aa-\	.
16D-\	.	16f\	.	16dd-\JJ	.	16aa-\	.
16BB-\	.	16f\	.	16dd-\LL	.	16bb-\	.
16BB-\JJ	.	16f\JJ	.	16dd-\JJ	.	16bb-\JJ	.
=154	=154	=154	=154	=154	=154	=154	=154
16GG-/LL	.	16e-\LL	.	16dd-\LL	.	16bb-\LL	.
16GG-/	.	16e-\	.	16dd-\	.	16bb-\	.
16EE-/	.	16g-\	.	16dd-\	.	16bb-\	.
16EE-/	.	16g-\	.	16dd-\JJ	.	16bb-\	.
16AA-/	.	16g-\	.	16cc\LL	.	16aa-\	.
16AA-/JJ	.	16g-\JJ	.	16cc\JJ	.	16aa-\JJ	.
=155	=155	=155	=155	=155	=155	=155	=155
16DD-\LL	.	16f\LL	.	8.dd-\	.	[4.aa-\	.
16d-\	.	16f\	.	.	.	.	.
16d-\	.	16f\	.	.	.	.	.
16d-\	.	16f\	.	16a-'\LL	.	.	.
16d-\	.	16f\	.	16dd-'\	.	.	.
16d-\JJ	.	16f\JJ	.	16ff'\JJ	.	.	.
=156	=156	=156	=156	=156	=156	=156	=156
16e-\LL	.	16g-\LL	.	16ee-'\LL	.	8.aa-\]	.
16e-\	.	16g-\	.	16dd-'\	.	.	.
16e-\	.	16g-\	.	16cc'\	.	.	.
16e-\	.	16g-\	.	16b-'\	.	16aa-'\LL	.
16e-\	.	16g-\	.	16cc'\	.	16eee-'\	.
16e-\JJ	.	16g-\JJ	.	16a-'/JJ	.	16ggg-'\JJ	.
=157	=157	=157	=157	=157	=157	=157	=157
8d-\	.	16a-\	.	16dd-'\LL	.	16aa-'\LL	.
.	.	16A-'\LL	.	16ff'\	.	16ddd-'\JJ	.
16r	.	16d-'\	.	16aa-'\	.	16fff'\LK	.
16AA-'/LL	.	16f'\JJ	.	16a-'/JJ	.	8aaa-\	.
16D-'/	.	8r	.	16f'/LL	.	.	.
16F'/JJ	.	.	.	16d-'/JJ	.	[16aaa-\Jk	.
=158	=158	=158	=158	=158	=158	=158	=158
16E-'/LL	.	16r	.	16c'/LL	.	16aaa-\LK]	.
16D-'/	.	16A-'\LL	.	16e-'/	.	8ggg-\	.
16C'/	.	16e-'\	.	16A-'/	.	.	.
16BB-'/	.	16g-'\JJ	.	16ee-'\JJ	.	8ggg-\	.
16C'/	.	16r	.	16e-'/LL	.	.	.
16AA-'/JJ	.	16c'\	.	[16a-/JJ	.	[16ggg-\Jk	.
=159	=159	=159	=159	=159	=159	=159	=159
16DD-/LL	.	16d-\LK	.	16a-/LK]	.	16ggg-\LK]	.
16FF/	.	8d-\J	.	8a-/	.	8fff\	.
16AA-/JJ	.	.	.	.	.	.	.
16r	.	16D-'/LL	.	8a-/	.	8fff\	.
8r	.	16F'/	.	.	.	.	.
.	.	16A-'/JJ	.	16a-/Jk	.	[16fff\Jk	.
=160	=160	=160	=160	=160	=160	=160	=160
4.r	.	4.r	.	16d-/LL	.	16fff\LK]	.
.	.	.	.	16f/	.	8fff\J	.
.	.	.	.	16a-/	.	.	.
.	.	.	.	16dd-/JJ	.	16ff'\LL	.
.	.	.	.	8r	.	16aa-'\	.
.	.	.	.	.	.	16ddd-'\JJ	.
=161	=161	=161	=161	=161	=161	=161	=161
16CC/LL	.	8r	.	16a-\LK 16cc\	.	16fff\LK	.
16FF/	.	.	.	8a-\ 8cc\	.	8fff\	.
16AA-/JJ	.	16r	.	.	.	.	.
16r	.	16C/LL	.	8a-\ 8cc\	.	8fff\	.
8r	.	16F/	.	.	.	.	.
.	.	16A-/JJ	.	16a-\Jk 16cc\	.	[16fff\Jk	.
=162	=162	=162	=162	=162	=162	=162	=162
4.r	.	4.r	.	16c/LL	.	16fff\LK]	.
.	.	.	.	16f/	.	8fff\J	.
.	.	.	.	16a-/	.	.	.
.	.	.	.	16cc/JJ	.	16ff\LL	.
.	.	.	.	8r	.	16aa-\	.
.	.	.	.	.	.	16ccc\JJ	.
=163	=163	=163	=163	=163	=163	=163	=163
16BBn/LL	.	8r	.	16a-\LK 16ddn\	.	16fff\LK	.
16D/	.	.	.	8a-\ 8dd\	.	8fff\	.
16F/JJ	.	16r	.	.	.	.	.
16r	.	16Bn\LL	.	8a-\ 8dd\	.	8fff\	.
8r	.	16d\	.	.	.	.	.
.	.	16f\JJ	.	16a-\Jk 16dd\	.	[16fff\Jk	.
=164	=164	=164	=164	=164	=164	=164	=164
4.r	.	4.r	.	16bn\LL	.	16fff\LK]	.
.	.	.	.	16dd\	.	8fff\J	.
.	.	.	.	16ff\JJ	.	.	.
.	.	.	.	16r	.	16ff'\LL	.
.	.	.	.	8r	.	16bbn'\	.
.	.	.	.	.	.	16ddd'\JJ	.
=165	=165	=165	=165	=165	=165	=165	=165
16AA-/LL	.	8r	.	16dd\LK 16ff\	.	16fff\LK	.
16D/	.	.	.	8dd\ 8ff\	.	8fff\	.
16F/JJ	.	16r	.	.	.	.	.
16r	.	16A-/LL	.	8dd\ 8ff\	.	8fff\	.
8r	.	16d/	.	.	.	.	.
.	.	16f/JJ	.	16dd\Jk 16ff\	.	[16fff\Jk	.
=166	=166	=166	=166	=166	=166	=166	=166
4.r	.	4.r	.	16bn\LL	.	16fff\LK]	.
.	.	.	.	16dd\	.	8fff\	.
.	.	.	.	16ff\JJ	.	.	.
.	.	.	.	16r	.	16ff\L	.
.	.	.	.	8r	.	16bbn\	.
.	.	.	.	.	.	16ddd\JJ	.
=167	=167	=167	=167	=167	=167	=167	=167
16GG\LL	.	16G/LK	f	16d/LK 16bn/	f	16fff\LL	f
16BBn\	.	8G/	.	8d/ 8b/	.	16G\	.
16D\	.	.	.	.	.	16Bn\	.
16G\	.	8G/	.	8d/ 8b/	.	16d\	.
16Bn\	.	.	.	.	.	16f\	.
[16d\JJ	.	16G/Jk	.	16d/Jk 16b/	.	16bn\JJ	.
=168	=168	=168	=168	=168	=168	=168	=168
16d\LL]	.	16G/LL	.	16d/LL 16bn/	.	16dd\LL	.
16Bn\	.	16G/	.	16d/ 16b/	.	16ff\	.
16G\	.	16G/	.	16d/ 16b/	.	16bbn\	.
16D\	.	16G/	.	16d/ 16b/	.	16ddd\	.
16BBn\	.	16G/	.	16d/ 16b/	.	16fff\	.
16GG\JJ	.	16G/JJ	.	16d/JJ 16b/	.	16fff\JJ	.
=169	=169	=169	=169	=169	=169	=169	=169
16FF#/LL	ff	16F#/LL	ff	16f#/LL	ff	16ff#\LL 16fff#\	ff
16FF#/JJ	.	16F#/JJ	.	16f#/JJ	.	16ff#\JJ 16fff#\	.
4FF#/	.	4F#/	.	4f#/	.	4ff#\ 4fff#\	.
=170	=170	=170	=170	=170	=170	=170	=170
4.r	.	4.r	.	4.r	.	4.r	.
=171	=171	=171	=171	=171	=171	=171	=171
(8Bn\L	p	(8Bn/L	p	(8f#/L	p	(8ee-\L	p
8F#\	.	8A#/	.	8en/	.	8cc#\	.
8G#\J	.	8B/J	.	8e-/J	.	8bn\J	.
=172	=172	=172	=172	=172	=172	=172	=172
8En\L	.	8G#/L	.	8g#/L	.	16.een\LL	.
.	.	.	.	.	.	32cc#\Jk	.
8F#\	.	8d#/	.	8f#/	.	8bn\	.
8E\J)	.	8c#/J)	.	8f#/J)	.	8a#\J)	.
=173	=173	=173	=173	=173	=173	=173	=173
(8E-\L	.	(8Bn/L	.	(8f#/L	.	(8ff#\L	.
8F#\	.	8A#/	.	8cc#\	.	8een\	.
8G#\J	.	8B/J	.	8bn\J	.	8ee-\J	.
=174	=174	=174	=174	=174	=174	=174	=174
8En\L	.	8G#/L	.	16.een\LL	.	16.gg#\LL	.
.	.	.	.	32cc#\Jk	.	32een\Jk	.
8F#\	.	8F#/	.	8bn\	.	8dd#\	.
8E\J)	.	8f#/J)	.	8a#\J)	.	8cc#\J)	.
=175	=175	=175	=175	=175	=175	=175	=175
(16.D#/LL	.	(8f#\L	.	(8bn\L	.	(16.ff#\LL	.
32BBn/Jk)	.	.	.	.	.	32dd#\Jk)	.
8En/J	.	8en\J)	.	8g#/J)	.	8cc#\J	.
8r	.	8r	.	8r	.	8r	.
=176	=176	=176	=176	=176	=176	=176	=176
8r	.	8r	.	8r	.	8r	.
8F#\	.	8c#\	.	8en/	.	8a#/	.
8r	.	8r	.	8r	.	8r	.
=177	=177	=177	=177	=177	=177	=177	=177
4.BBn/	pp	16Bn'/LL	.	4.r	.	16dd#'\LL	f
.	.	16F#'/	.	.	.	16dd#'\J	.
.	.	16B'/	.	.	.	8dd#\	.
.	.	16F#'/	.	.	.	.	.
.	.	16B'/	.	.	.	8dd#\J	.
.	.	16F#'/JJ	.	.	.	.	.
=178	=178	=178	=178	=178	=178	=178	=178
(4.AA#/	pp	16c#'/LL	.	16f#/LL	pp	(4.een\	.
.	.	16F#'/	.	16f#/J	.	.	.
.	.	16c#'/	.	8f#/	.	.	.
.	.	16F#'/	.	.	.	.	.
.	.	16c#'/	.	8f#/J	.	.	.
.	.	16F#'/JJ	.	.	.	.	.
=179	=179	=179	=179	=179	=179	=179	=179
4.BBn/	.	16Bn/LL	.	4.r	.	16dd#\LL)	.
.	.	16F#/	.	.	.	16dd#\J	.
.	.	16B/	.	.	.	8dd#\	.
.	.	16F#/	.	.	.	.	.
.	.	16B/	.	.	.	8dd#\J	.
.	.	16F#/JJ	.	.	.	.	.
=180	=180	=180	=180	=180	=180	=180	=180
4.FF#/	.	16B-/LL	.	16f#/LL	.	(4.cc#\	.
.	.	16F#/	.	16f#/J	.	.	.
.	.	16B-/	.	8f#/	.	.	.
.	.	16F#/	.	.	.	.	.
.	.	16B-/	.	8f#/J	.	.	.
.	.	16F#/JJ	.	.	.	.	.
=181	=181	=181	=181	=181	=181	=181	=181
4.GG#/	.	16G#/LL	.	8r	.	16bn\LL)	.
.	.	16E-/	.	.	.	16b\J	.
.	.	16G#/	.	16e-/LL	.	8b\	.
.	.	16E-/	.	16e-/J	.	.	.
.	.	16G#/	.	8e-/J	.	8b\J	.
.	.	16E-/JJ	.	.	.	.	.
=182	=182	=182	=182	=182	=182	=182	=182
4.DD#/)	.	16F#/LL	.	16e-/LL	.	16a#/LL	.
.	.	16E-/	.	16e-/	.	16a#/	.
.	.	16F#/	.	16e-/	.	16a#/	.
.	.	16E-/	.	16e-/	.	16a#/	.
.	.	16F#/	.	16e-/	.	16a#/	.
.	.	16E-/JJ	.	16e-/JJ	.	16a#/JJ	.
=183	=183	=183	=183	=183	=183	=183	=183
[4.BB-/	.	[4.F/	.	(4.d/	.	[4.b-\	.
=184	=184	=184	=184	=184	=184	=184	=184
4.BB-/]	.	4.F/]	.	(4.d-/)	.	(4.b-\]	.
=185	=185	=185	=185	=185	=185	=185	=185
16GG-'\LL	p	16G-'/LL	p	16b-'\LL)	.	16bb-\LL)	p
16B-'\	.	16d-'/	.	16b-'\J	.	16bb-\J	.
16G-'\	.	16B-'/	.	8b-\J	.	8bb-\	.
16B-'\	.	16d-'/	.	.	.	.	.
16G-'\	.	16B-'/	.	8b-\	.	8bb-\J	.
16B-'\JJ	.	16d-'/JJ	.	.	.	.	.
=186	=186	=186	=186	=186	=186	=186	=186
16F'\LL	.	16A-'/LL	.	(4.cc-\	.	(4.ccc-\	.
16A-'\	.	16d-'/	.	.	.	.	.
16F'\	.	16A-'/	.	.	.	.	.
16A-'\	.	16d-'/	.	.	.	.	.
16F'\	.	16A-'/	.	.	.	.	.
16A-'\JJ	.	16d-'/JJ	.	.	.	.	.
=187	=187	=187	=187	=187	=187	=187	=187
16G-\LL	.	16B-/LL	.	16b-\LL)	.	16bb-\LL)	.
16G-\	.	16B-/	.	16b-\J	.	16bb-\J	.
16E-\	.	16G-/	.	8b-\	.	8bb-\	.
16G-\	.	16B-/	.	.	.	.	.
16E-\	.	16G-/	.	8b-\J	.	8bb-\J	.
16G-\JJ	.	16B-/JJ	.	.	.	.	.
=188	=188	=188	=188	=188	=188	=188	=188
16D\LL	.	16F/LL	.	(4.a-/	.	(4.aa-\	.
16F\	.	16B-/	.	.	.	.	.
16D\	.	16F/	.	.	.	.	.
16F\	.	16B-/	.	.	.	.	.
16D\	.	16F/	.	.	.	.	.
16F\JJ	.	16B-/JJ	.	.	.	.	.
=189	=189	=189	=189	=189	=189	=189	=189
16E-/LL	.	16G-/LL	.	16g-/LL)	.	16gg-\LL)	.
16E-/	.	16G-/	.	16g-/J	.	16gg-\J	.
16BB-/	.	16E-/	.	8g-/	.	8gg-\	.
16E-/	.	16G-/	.	.	.	.	.
16BB-/	.	16E-/	.	8g-/J	.	8gg-\J	.
16E-/JJ	.	16G-/JJ	.	.	.	.	.
=190	=190	=190	=190	=190	=190	=190	=190
16BB-/LL	.	16D-/LL	.	16f/LL	.	16ff\LL	.
16C#/	.	16F/	.	16f/	.	16ff\	.
16BB-/	.	16D-/	.	16f/	.	16ff\	.
16C#/	.	16F/	.	16f/JJ	.	16ff\	.
16BB-/	.	16D-/	.	16f/LL	.	16ff\	.
16C#/JJ	.	16F/JJ	.	16f/JJ	.	16ff\JJ	.
=191	=191	=191	=191	=191	=191	=191	=191
[4.C/	.	[4.Gn/	.	[4.en/	.	[4.een\	.
=192	=192	=192	=192	=192	=192	=192	=192
4.C/]	.	4.G/]	.	4.en/]	.	4.een\_	.
=193	=193	=193	=193	=193	=193	=193	=193
16CC/LL 16C/	.	[4.C/ [4.G/	.	[4.G/ [4.en/	.	16een\LL]	.
16CC/J 16C/	.	.	.	.	.	16ee\	.
8CC/ 8C/	.	.	.	.	.	16gg\	.
.	.	.	.	.	.	16ccc\	.
8CC/J 8C/	.	.	.	.	.	16eeen\	.
.	.	.	.	.	.	16cc\JJ	.
=194	=194	=194	=194	=194	=194	=194	=194
16CC/LL 16C/	.	4.C/_ 4.G/_	.	4.G/_ 4.en/_	.	16een\LL	.
16CC/J 16C/	.	.	.	.	.	16gg\	.
8CC/ 8C/	.	.	.	.	.	16ccc\	.
.	.	.	.	.	.	16g\	.
8CC/J 8C/	.	.	.	.	.	16cc\	.
.	.	.	.	.	.	16ee\JJ	.
=195	=195	=195	=195	=195	=195	=195	=195
16CC/LL 16C/	.	4C/] 4G/]	.	4G/] 4en/]	.	16en/LL	.
16CC/ 16C/	.	.	.	.	.	16g/	.
16CC/ 16C/	.	.	.	.	.	16cc/	.
16CC/ 16C/	.	.	.	.	.	16c/	.
16CC/ 16C/	.	8C/ 8G/	.	8G/ 8e-/	.	16e-/	.
16CC/JJ 16C/	.	.	.	.	.	16g/JJ	.
=196	=196	=196	=196	=196	=196	=196	=196
4.CC/ 4.C/	.	(4e-\	.	4g/	.	16cc\LL	.
.	.	.	.	.	.	16ee-\	.
.	.	.	.	.	.	16gg\	.
.	.	.	.	.	.	16ccc\	.
.	.	8f#\)	.	8a/	.	16eee-\	.
.	.	.	.	.	.	16ccc\JJ	.
=197	=197	=197	=197	=197	=197	=197	=197
16GG\LL	.	16G/LL 16g/	.	8d/	.	[4.bbn\	.
16G\	.	16G/J 16g/	.	.	.	.	.
16Bn\	.	8G/ 8g/	.	8r	.	.	.
16d\	.	.	.	.	.	.	.
16g\	.	8G/J 8g/	.	8r	.	.	.
16D\JJ	.	.	.	.	.	.	.
=198	=198	=198	=198	=198	=198	=198	=198
16G\LL	.	16G\LL 16g\	.	[4.g/ [4.bn/	.	4.bbn\_	.
16Bn\	.	16G\J 16g\	.	.	.	.	.
16d\	.	8G\ 8g\	.	.	.	.	.
16BBn\	.	.	.	.	.	.	.
16D\	.	8G\J 8g\	.	.	.	.	.
16G\JJ	.	.	.	.	.	.	.
=199	=199	=199	=199	=199	=199	=199	=199
16GG/LL	.	16G\LL 16g\	.	4g/] 4b/]	.	4bb\]	.
16BBn/	.	16G\ 16g\	.	.	.	.	.
16D/	.	16G\ 16g\	.	.	.	.	.
16G/	.	16G\ 16g\	.	.	.	.	.
16D/	.	16G\ 16g\	.	8g/ 8b-/	.	8bb-\	.
16BB-/JJ	.	16G\JJ 16g\	.	.	.	.	.
=200	=200	=200	=200	=200	=200	=200	=200
16GG/LL	.	4.G\ 4.g\	.	(4b-\	.	(4d/	.
16BB-/	.	.	.	.	.	.	.
16GG/	.	.	.	.	.	.	.
16FF/	.	.	.	.	.	.	.
16EEn/	.	.	.	8cc#\)	.	8en/)	.
16AA/JJ	.	.	.	.	.	.	.
=201	=201	=201	=201	=201	=201	=201	=201
[4.DD/	.	16r	ff	16d/LL 16dd/	.	[4.f/	.
.	.	16f\LL	.	16d/J 16dd/	.	.	.
.	.	16a\	.	8d/ 8dd/	.	.	.
.	.	16dd\	.	.	.	.	.
.	.	16ff\	.	8d/J 8dd/	.	.	.
.	.	16d\JJ	.	.	.	.	.
=202	=202	=202	=202	=202	=202	=202	=202
4.DD/_	.	16f\LL	.	16d/LL 16dd/	.	4.f/_	.
.	.	16a\	.	16d/J 16dd/	.	.	.
.	.	16A\	.	8d/ 8dd/	.	.	.
.	.	16d\	.	.	.	.	.
.	.	16f\	.	8d/J 8dd/	.	.	.
.	.	16F\JJ	.	.	.	.	.
=203	=203	=203	=203	=203	=203	=203	=203
4DD/]	.	16G#\LL	.	16d/LL 16dd/	.	4f/]	.
.	.	16Bn\	.	16d/ 16dd/	.	.	.
.	.	16d\	.	16d/ 16dd/	.	.	.
.	.	16f\	.	16d/ 16dd/	.	.	.
8DD/	.	16g#\	.	16d/ 16dd/	.	8f/	.
.	.	16bn\JJ	.	16d/JJ 16dd/	.	.	.
=204	=204	=204	=204	=204	=204	=204	=204
4DD/	.	16g#\LL	.	4.d/ 4.dd/	.	(4ff\	.
.	.	16f\	.	.	.	.	.
.	.	16d\	.	.	.	.	.
.	.	16Bn\JJ	.	.	.	.	.
8D\	.	16G#/LL	.	.	.	8gg#\)	.
.	.	16F/JJ	.	.	.	.	.
=205	=205	=205	=205	=205	=205	=205	=205
8D#\	.	8F#/	.	16cc\LL	ff	16a\LL 16aa\	.
.	.	.	.	16a/	.	16a\JJ 16aa\	.
8r	.	8r	.	16cc\	.	8a\L 8aa\	.
.	.	.	.	16ee-\JJ	.	.	.
8r	.	16r	.	16ff#\LL	.	8a\J 8aa\	.
.	.	16F#/	.	16f#\JJ	.	.	.
=206	=206	=206	=206	=206	=206	=206	=206
8r	.	16A/LL	.	16a/LL	.	16a\LL 16aa\	.
.	.	16c/	.	16cc\	.	16a\JJ 16aa\	.
16r	.	16d#/	.	16ee-\	.	8a\L 8aa\	.
16D#\LL	.	16D#/	.	16e-/	.	.	.
16F#\	.	16F#/	.	16f#/	.	8a\J 8aa\	.
16A\JJ	.	16A/JJ	.	16a/JJ	.	.	.
=207	=207	=207	=207	=207	=207	=207	=207
16c\LL	.	16c\LL	.	16cc\LL	.	16a\LL 16aa\	.
16A\	.	16c\	.	16a\JJ 16ff#\	.	16a\ 16aa\	.
16F#\	.	16c\	.	16a\LL 16ff#\	.	16a\ 16aa\	.
16E-\JJ	.	16c\	.	16a\ 16ff#\	.	16a\ 16aa\	.
16C/LL	.	16c\	.	16a\ 16ff#\	.	16a\ 16aa\	.
16AA/JJ	.	16c\JJ	.	16a\JJ 16ff#\	.	16a\JJ 16aa\	.
=208	=208	=208	=208	=208	=208	=208	=208
16FF#/LL	.	16c\LL	.	16a\LL 16ff#\	.	16a\LL 16aa\	.
16EE-/JJ	.	16c\JJ 16f#\	.	16a\JJ 16aa\	.	16a\ 16ccc\	.
16EE-/LL	.	16c\LL 16f#\	.	16a\LL 16aa\	.	16a\ 16ccc\	.
16EE-/	.	16c\ 16f#\	.	16a\JJ 16aa\	.	16a\ 16ccc\	.
16EE-/	.	16c\ 16f#\	.	16a\LL 16aa\	.	16a\ 16ccc\	.
16EE-/JJ	.	16c\JJ 16f#\	.	16a\JJ 16aa\	.	16a\JJ 16ccc\	.
=209	=209	=209	=209	=209	=209	=209	=209
16EE-/LL	.	16c\LL 16f#\	.	16a\LL 16aa\	.	16a\LL 16ccc\	.
16EE-/	.	16c\ 16f#\	.	16a\ 16aa\	.	16a\ 16ccc\	.
16EE-/	.	16c\ 16f#\	.	16a\ 16aa\	.	16a\ 16ccc\	.
16EE-/	.	16c\ 16f#\	.	16a\JJ 16aa\	.	16a\ 16ccc\	.
16EE-/	.	16c\ 16f#\	.	16a\LL 16aa\	.	16a\ 16ccc\	.
16EE-/JJ	.	16c\JJ 16f#\	.	16a\JJ 16aa\	.	16a\JJ 16ccc\	.
=210	=210	=210	=210	=210	=210	=210	=210
16EE-/LL	.	16c\LL 16f#\	.	16a\LL 16aa\	.	16a\LL 16ccc\	.
16EE-/	.	16c\ 16f#\	.	16a\ 16aa\	.	16a\ 16ccc\	.
16EE-/	.	16c\ 16f#\	.	16a\ 16aa\	.	16a\ 16ccc\	.
16EE-/	.	16c\ 16f#\	.	16a\JJ 16aa\	.	16a\ 16ccc\	.
16EE-/	.	16c\ 16f#\	.	16a\LL 16aa\	.	16a\ 16ccc\	.
16EE-/JJ	.	16c\JJ 16f#\	.	16a\JJ 16aa\	.	16a\JJ 16ccc\	.
=211	=211	=211	=211	=211	=211	=211	=211
8EEn/	p	8c\ 8en\	p	16a\LL 16aa\	p	16ccc\LL	p
.	.	.	.	16aa\JJ	.	16ccc\	.
8r	.	8r	.	16aa\LL	.	16ccc\	.
.	.	.	.	16aa\JJ	.	16ccc\	.
8r	.	8r	.	16aa\LL	.	16ccc\	.
.	.	.	.	16aa\JJ	.	16ccc\JJ	.
=212	=212	=212	=212	=212	=212	=212	=212
4.r	.	16een\LL	pp	16aa\LL	pp	16ccc\LL	pp
.	.	16ee\	.	16aa\	.	16ccc\	.
.	.	16ee\	.	16aa\	.	16ccc\	.
.	.	16ee\	.	16aa\JJ	.	16ccc\	.
.	.	16ee\	.	16aa\LL	.	16ccc\	.
.	.	16ee\JJ	.	16aa\JJ	.	16ccc\JJ	.
=213	=213	=213	=213	=213	=213	=213	=213
*clefC4	*clefG2	*	*	*	*	*	*
16a'\LL	pp	16cc'\LL	.	16een'\LL	.	16ccc'\LL	.
16a'\J	.	16cc'\J	.	16ee'\J	.	16eeen'\	.
8a'\	.	8cc'\	.	8ee'\	.	16aaa'\	.
.	.	.	.	.	.	16eee'\	.
8a'\J	.	8dd'\J	.	8ff'\J	.	16fff'\	.
.	.	.	.	.	.	16ddd'\JJ	.
=214	=214	=214	=214	=214	=214	=214	=214
16a\LL	.	16cc\LL	.	16een\LL	.	8eeen'\	.
16a\J	.	16cc\J	.	16ee\J	.	.	.
8a\	.	8cc\	.	8ee\	.	4ccc\	.
8a\J	.	8cc\J	.	8ee\J	.	.	.
=215	=215	=215	=215	=215	=215	=215	=215
16a\LL	.	16dd\LL	.	16ff\LL	.	16fff'\LL	.
16a\J	.	16dd\J	.	16ff\J	.	16eeen'\	.
8a\	.	8dd\	.	8ff\	.	16ddd'\	.
.	.	.	.	.	.	16ccc'\	.
8a\J	.	8dd\J	.	8een\J	.	16bbn'\	.
.	.	.	.	.	.	16eee'\JJ	.
=216	=216	=216	=216	=216	=216	=216	=216
16a\LL	.	16cc'\LL	.	16een'\LL	.	8ccc'\	.
16a\J	.	16cc'\	.	16ee'\	.	.	.
8a\J	.	16cc'\	.	16ee'\	.	4aa\	.
.	.	16a'\	.	16cc'\	.	.	.
8r	.	16bn'\	.	16dd'\	.	.	.
.	.	16cc'\JJ	.	16ee'\JJ	.	.	.
=217	=217	=217	=217	=217	=217	=217	=217
4.r	.	16dd'\LL	.	16ff'\LL	.	4.r	.
.	.	16cc'\	.	16een'\	.	.	.
.	.	16bn'\	.	16dd'\	.	.	.
.	.	16a'\	.	16cc'\	.	.	.
.	.	16g#'\	p	16bn'\	.	.	.
.	.	16en'\JJ	.	16ee'\JJ	.	.	.
=218	=218	=218	=218	=218	=218	=218	=218
4.r	.	4.r	.	16g'/LL	.	16b-'/LL	p
.	.	.	.	16f'/	.	16a'/	.
.	.	.	.	16en'/	.	16g'/	.
.	.	.	.	16d'/	.	16f'/	.
.	.	.	.	16c#'/	.	16en'/	.
.	.	.	.	16e'/JJ	.	16g'/JJ	.
=219	=219	=219	=219	=219	=219	=219	=219
*clefF4	*clefF4	*	*	*	*	*	*
16B-'\LL	.	8r	.	4.r	.	4.r	.
16A'\	.	.	.	.	.	.	.
16G'\	.	16B-'/LL	p	.	.	.	.
16F'\	.	16A'/	.	.	.	.	.
16En'\	p	16G'/	.	.	.	.	.
16B-'\JJ	.	16c#'/JJ	.	.	.	.	.
=220	=220	=220	=220	=220	=220	=220	=220
4r	.	16c'\LL	.	4r	.	16aa'\LL	.
.	.	16B-'\	.	.	.	16gg'\	.
.	.	16A'\	.	.	.	16ff#'\	.
.	.	16e-'\	.	.	.	16ccc'\JJ	.
16F'\LL	.	16d'\	.	16bn'\LL	.	8bbn'\	.
16E-'\JJ	.	16c'\JJ	.	16cc'\JJ	.	.	.
=221	=221	=221	=221	=221	=221	=221	=221
16D'\LL	.	16Bn'\LL	.	16dd'\LL	.	4.r	.
16A-'\	.	16f'\	.	16bn'\JJ	.	.	.
16G'\	.	16e-'\	.	8r	.	.	.
16F'\JJ	.	16d'\JJ	.	.	.	.	.
8r	.	8r	.	16cc'\LL	.	.	.
.	.	.	.	16dd'\JJ	.	.	.
=222	=222	=222	=222	=222	=222	=222	=222
4r	.	4r	.	16ee-'\LL	.	16ggg'\LL	.
.	.	.	.	16dd'\	.	16fff'\	.
.	.	.	.	16cc'\	.	16eeen'\	.
.	.	.	.	16ee-'\JJ	.	16ggg'\JJ	.
16e-'\LL	.	16g'\LL	.	8r	.	8r	.
16d'\JJ	.	16f'\JJ	.	.	.	.	.
=223	=223	=223	=223	=223	=223	=223	=223
16c'\LL	.	16e-'\LL	.	8r	.	8r	.
16e-'\JJ	.	16g'\JJ	.	.	.	.	.
8r	.	8r	.	16cc'\LL	.	16eee-'\LL	.
.	.	.	.	16b-'\	.	16ddd'\	.
16c'\LL	.	16e-'\LL	.	16a'/	.	16ccc'\	.
16B-'\JJ	.	16d'\JJ	.	16cc'\JJ	.	16eee-'\JJ	.
=224	=224	=224	=224	=224	=224	=224	=224
16A'\LL	.	16c'\LL	.	8r	.	8r	.
16c'\JJ	.	16e-'\JJ	.	.	.	.	.
8r	.	8r	.	16a'/LL	.	16ccc'\LL	.
.	.	.	.	16g'/JJ	.	16bb-'\	.
8r	.	8r	.	16f#'/LL	.	16aa'\	.
.	.	.	.	16en'/JJ	.	16ccc'\JJ	.
=225	=225	=225	=225	=225	=225	=225	=225
16B-\LL	.	16dd\LL	.	16d'/LL	.	16ff#'\LL	.
16A\	.	16cc\	.	16f#'/JJ	.	16aa'\JJ	.
16G\	.	16b-\	.	8b-'\	.	8ddd'\	.
16B-\	.	16dd\	.	.	.	.	.
16E-\	.	16g\	.	16cc'\LL	.	16eee-'\LL	.
16G\JJ	.	16b-\JJ	.	16b-'\JJ	.	16ddd'\JJ	.
=226	=226	=226	=226	=226	=226	=226	=226
16c\LL	.	16ee-\LL	.	16a'\LL	.	16ccc'\LL	.
16B-\JJ	.	16dd\JJ	.	16cc\JJ	.	16eee-'\JJ	.
16A\LL	.	16cc\LL	.	8r	.	8r	.
16c\	.	16ee-\	.	.	.	.	.
16F\	.	16a\	.	16dd\LL	.	16fff'\LL	.
16A\JJ	.	16cc\JJ	.	16cc\JJ	.	16eee-'\JJ	.
=227	=227	=227	=227	=227	=227	=227	=227
16B-\LL	.	16dd\LL	.	16b-\LL	.	16ddd'\LL	.
16A\	.	16cc\	.	16dd\	.	16fff'\	.
16G\	.	16b-\	.	16ee-\	.	16ggg'\	.
16B-\	.	16dd\	.	16dd\JJ	.	16fff'\	.
16c\	.	16ee-\	.	16cc\LL	.	16eee-'\	.
16B-\JJ	.	16dd\JJ	.	16ee-\JJ	.	16ggg'\JJ	.
=228	=228	=228	=228	=228	=228	=228	=228
16A-\LL	.	16cc\LL	.	16ff\LL	.	16aaa-\LL	.
16c\	.	16ee-\	.	16ee-\	.	16ggg\	.
16d\	.	16ff\	.	16dd\	.	16fff\	.
16c\	.	16ee-\	.	16ff\JJ	.	16aaa-\	.
16B-\	.	16dd\	.	16gg\LL	.	16bbb-\	.
16d\JJ	.	16ff\JJ	.	16ff\JJ	.	16aaa-\JJ	.
=229	=229	=229	=229	=229	=229	=229	=229
16e-\LL	.	16gg\LL	.	16ee-\LL	.	16ggg\LL	.
16e-\JJ	.	16g\JJ	.	16gg\	.	16bbb-\	.
*clefC4	*clefG2	*	*	*	*	*	*
16d\LL	.	16f\LL	.	16aa-\	.	16cccc\	.
16e-\	.	16g\	.	16gg\JJ	.	16bbb-\	.
16f\	.	16a-\	.	16ff\LL	.	16aaa-\	.
16g\JJ	.	16b-\JJ	.	16ee-\JJ	.	16ggg\JJ	.
=230	=230	=230	=230	=230	=230	=230	=230
16a-\LL	.	16cc\LL	.	16dd\LL	.	16fff\LL	.
16g\	.	16b-\	.	16ee-\	.	16ggg\	.
16f\	.	16a-\	.	16bbn\	.	16ddd\	.
16e-\	.	16g\	.	16ccc\	.	16eee-\	.
16d\	.	16f\	.	16gg\	.	16bbn\	.
16c\JJ	.	16e-\JJ	.	16aa\JJ	.	16ccc\JJ	.
=231	=231	=231	=231	=231	=231	=231	=231
*clefF4	*clefF4	*	*	*	*	*	*
16Bn\LL	.	16d\LL	.	16bbn\LL	.	16ddd\LL	.
16A\	.	16c\	.	16ccc\	.	16eee-\	.
16G\	.	16Bn\	.	16ddd\	.	16fff\	.
16f\	.	16a-\	.	16g/	.	16bn\	.
16e-\	.	16g\	.	16a/	.	16cc\	.
16d\JJ	.	16f\JJ	.	16bn\JJ	.	16dd\JJ	.
=232	=232	=232	=232	=232	=232	=232	=232
16c\LL	.	16e-\LL	.	16cc\LL	.	16ee-\LL	.
16B-\	.	16d\	.	16dd\	.	16ff\	.
16A\	.	16c\	.	16ee-\	.	16gg\	.
16B-\	.	16d\	.	16een\JJ	.	16gg\	.
16A\	.	16c\	.	16ff\LL	.	16aa\	.
16G\JJ	.	16B-\JJ	.	16gg\JJ	.	16bb-\JJ	.
=233	=233	=233	=233	=233	=233	=233	=233
16F\LL	.	16A/LL	.	16aa\LL	.	16ccc\LL	.
16E-\	.	16G/	.	16aa\	.	16ccc\	.
16D\	.	16F/	.	16bb-\	.	16ddd\	.
16C\	.	16E-/	.	16ccc\	.	16eee-\	.
16A\	.	16c/	.	16ff\	.	16aa\	.
16G\JJ	.	16B-/JJ	.	16gg\JJ	.	16bb-\JJ	.
=234	=234	=234	=234	=234	=234	=234	=234
16F\LL	.	16A/LL	.	16aa\LL	.	16ccc\LL	.
16En\	.	16G/	.	16bb-\	.	16ddd\	.
16B-\	.	16d-/	.	16een\	.	16gg\	.
16A\	.	16c/	.	16ff\JJ	.	16aa\	.
16G\	.	16B-/	.	16gg\LL	.	16bb-\	.
16F\JJ	.	16A/JJ	.	16aa\JJ	.	16ccc\JJ	.
=235	=235	=235	=235	=235	=235	=235	=235
16E-/LL	.	16G/LL	.	16aa\LL	.	16ccc\LL	.
16D/	.	16F/	.	16bb-\	.	16ddd\	.
16C/	.	16E-/	.	16ccc\	.	16eee-\	.
16BB-/	.	16D/	.	16ddd\JJ	.	16fff\	.
16AA/	.	16C/	.	16eee-\LL	.	16ggg\	.
16BB-/JJ	.	16D/JJ	.	16ddd\JJ	.	16fff\JJ	.
=236	=236	=236	=236	=236	=236	=236	=236
16CC/LL	.	16E-/LL	.	16ccc\LL	.	16eee-\LL	.
16DD/	.	16F/	.	16bb-\	.	16ddd\	.
16EE-/	.	16G/	.	16bb-\	.	16ccc\	.
16EEn/	.	16G/	.	16bb-\	.	16ccc\	.
16FF/	.	16F/	.	16aa\	.	16ccc\	.
16FF/JJ	.	16A/JJ 16a/	.	16ccc\JJ	.	16eee-\JJ	.
=237	=237	=237	=237	=237	=237	=237	=237
16GG-/LL	ff	16A\LL 16a\	.	16ee-\LL 16ccc\	ff	16ee-\LL 16eee-\	ff
16GG-/J	.	16A\J 16a\	.	16ee-\J 16ccc\	.	16ee-\J 16eee-\	.
8GG-/J	.	8A\J 8a\	.	8ee-\J 8ccc\	.	8ee-\J 8eee-\	.
8r	.	8r	.	8r	.	8r	.
=238	=238	=238	=238	=238	=238	=238	=238
4.r	.	4.r	.	4.r	.	4.r	.
=239	=239	=239	=239	=239	=239	=239	=239
4.r	.	(4.B-/	p	(4.g-/	p	16ddd-\LL	p
.	.	.	.	.	.	16ddd-\J	.
.	.	.	.	.	.	8ddd-\	.
.	.	.	.	.	.	8ddd-\J	.
=240	=240	=240	=240	=240	=240	=240	=240
4.r	.	4.d-\	.	4.b-\	.	16ddd-\LL	.
.	.	.	.	.	.	16ddd-\J	.
.	.	.	.	.	.	8ddd-\	.
.	.	.	.	.	.	8ddd-\J	.
=241	=241	=241	=241	=241	=241	=241	=241
4.r	.	8c-\L	.	8a-/L	.	16ddd-\LL	.
.	.	.	.	.	.	16ddd-\	.
.	.	8e-\	.	8cc-/	.	16ddd-\	.
.	.	.	.	.	.	16ddd-\	.
.	.	8A-\J)	.	8f/J)	.	16ddd-\	.
.	.	.	.	.	.	16ddd-\JJ	.
=242	=242	=242	=242	=242	=242	=242	=242
16d-'\LL	p	8.B-/	.	8.g-'/L	.	8.ddd-\	.
16B-'\	.	.	.	.	.	.	.
16G-'\	.	.	.	.	.	.	.
16D-'\	.	16r	.	16d-'/L	.	16r	.
16BB-'\	.	8r	.	16g-'/	.	8r	.
16GG-'\JJ	.	.	.	16b-'/JJ	.	.	.
=243	=243	=243	=243	=243	=243	=243	=243
8FF/	.	4.r	.	16a-'/LL	.	4.r	.
.	.	.	.	16g-'/	.	.	.
[4C-^/	.	.	.	16f'/	.	.	.
.	.	.	.	16e-'/	.	.	.
.	.	.	.	16f'/	.	.	.
.	.	.	.	16d-'/JJ	.	.	.
=244	=244	=244	=244	=244	=244	=244	=244
8C-/L]	.	8r	.	16g-/LL	.	4.r	.
.	.	.	.	16b-\JJ	.	.	.
16BB-/L	.	16r	.	8.dd-^\	.	.	.
16D-'/	.	16D-'/LL	.	.	.	.	.
16BB-'/	.	16G-'/	.	.	.	.	.
16GG-'/JJ	.	16B-'/JJ	.	16r	.	.	.
=245	=245	=245	=245	=245	=245	=245	=245
16FF'/LL	.	16A-'/LL	.	4.r	.	4.r	.
16AA-'/	.	16F'/	.	.	.	.	.
16EE-'/	.	16G-'/	.	.	.	.	.
16GG-'/	.	16E-'/	.	.	.	.	.
16AA-'/	.	16A-'/	.	.	.	.	.
16AA-'/JJ	.	16C'/JJ	.	.	.	.	.
=246	=246	=246	=246	=246	=246	=246	=246
(4.FF/	.	(4.D-/	.	16a-/LL	.	4.r	.
.	.	.	.	16a-/J	.	.	.
.	.	.	.	8a-/J	.	.	.
.	.	.	.	8a-/	.	.	.
=247	=247	=247	=247	=247	=247	=247	=247
4.AA-/	.	4.F/	.	16a-/LL	.	4.r	.
.	.	.	.	16a-/J	.	.	.
.	.	.	.	8a-/J	.	.	.
.	.	.	.	8a-/	.	.	.
=248	=248	=248	=248	=248	=248	=248	=248
8GG-/L	.	8E-/L	.	16a-/LL	.	4.r	.
.	.	.	.	16a-/	.	.	.
8BB-/	.	8G-/	.	16a-/	.	.	.
.	.	.	.	16a-/JJ	.	.	.
8EE-/J)	.	8C/J)	.	16a-/LL	.	.	.
.	.	.	.	16a-/JJ	.	.	.
=249	=249	=249	=249	=249	=249	=249	=249
4.FF/	.	8.D-/	.	8.a-/	p	16aa-'\LL	.
.	.	.	.	.	.	16ff'\	.
.	.	.	.	.	.	16dd-'\	.
.	.	16A-'\LL	.	16r	.	16a-'\	.
.	.	16d-'\	.	8r	.	16f'\	.
.	.	16f'\JJ	.	.	.	16d-'\JJ	.
=250	=250	=250	=250	=250	=250	=250	=250
4.r	.	16e-'\LL	.	4.r	.	8c/	.
.	.	16d-'\	.	.	.	.	.
.	.	16c'\	.	.	.	[4g-/	.
.	.	16B-'\	.	.	.	.	.
.	.	16c'\	.	.	.	.	.
.	.	16A-'\JJ	.	.	.	.	.
=251	=251	=251	=251	=251	=251	=251	=251
8r	.	16d-'\LL	.	8r	.	8g-/L]	.
.	.	16f'\	.	.	.	.	.
16r	.	16a-'\JJ	.	16r	.	16f/Jk	.
16A-'\LL	.	16r	.	16ff'\LL	.	16aa-'\LL	.
16F-'\	.	8r	.	16aa-'\	.	16ddd-'\	.
16D-'\JJ	.	.	.	16aa-'\JJ	.	16fff'\JJ	.
=252	=252	=252	=252	=252	=252	=252	=252
16C'\LL	.	8r	.	16aa-'\LL	.	16eee-'\LL	.
16E-'\	.	.	.	16a-'/JJ	.	16ccc'\	.
16BB-'\	.	16r	.	16ff'\LL	.	16ddd-'\	.
16D-'\	.	16f'/LL	.	16dd-'\	.	16bb-'\	.
16E-'\	.	16g'/	.	16b-'\	.	16eee-'\	.
16d-'\JJ	.	16E-/JJ	.	16g'\JJ	.	16gg'\JJ	.
=253	=253	=253	=253	=253	=253	=253	=253
4.c\	.	16A-/LL	.	4.a-/	.	4.aa-\	.
.	.	16A-/J	.	.	.	.	.
.	.	8A-/	.	.	.	.	.
.	.	8A-/J	.	.	.	.	.
=254	=254	=254	=254	=254	=254	=254	=254
4.e-\	.	16A-/LL	.	4.cc\	.	4.ccc\	.
.	.	16A-/J	.	.	.	.	.
.	.	8A-/	.	.	.	.	.
.	.	8A-/J	.	.	.	.	.
=255	=255	=255	=255	=255	=255	=255	=255
(8d-\L	.	16A-/LL	.	(8b-\L	.	(8bb-\L	.
.	.	16A-/	.	.	.	.	.
8f\	.	16A-/	.	8dd-\	.	8ddd-\	.
.	.	16A-/	.	.	.	.	.
8B-\J)	.	16A-/	.	8g\J)	.	8gg\J)	.
.	.	16A-/JJ	.	.	.	.	.
=256	=256	=256	=256	=256	=256	=256	=256
8c\L	.	8A-\L	.	(4a-/	.	(4aa-\	.
8A-\	.	8c\ 8e-\	.	.	.	.	.
8A-\J	.	8c\J 8e-\	.	8g-/)	.	8gg-\)	.
=257	=257	=257	=257	=257	=257	=257	=257
[4.An\	f	[4.c\ [4.e-\	f	[4.f/	f	[4.ff\	f
=258	=258	=258	=258	=258	=258	=258	=258
4.A\]	.	4.c\] 4.e-\]	.	4.f/]	.	4.ff\]	.
=259	=259	=259	=259	=259	=259	=259	=259
8B-\L	p	8f\L	p	(8dd\L	p	[4.ff\	p
8F\	.	8e-\	.	8cc\	.	.	.
8G\J	.	8d\J	.	8b-\J	.	.	.
=260	=260	=260	=260	=260	=260	=260	=260
8E-\L	.	16.g\LL	.	16.ee-\LL	.	4.ff\_	.
.	.	32e-\Jk	.	32cc\Jk	.	.	.
8F\	.	8d\	.	8b-\	.	.	.
8E-\J	.	8c\J	.	8a\J)	.	.	.
=261	=261	=261	=261	=261	=261	=261	=261
(8D/L	.	(8B-/L	.	(8ff\L	.	4.ff\_	.
8C/	.	8A/	.	8ee-\	.	.	.
8BB-/J	.	8B-/J	.	8dd\J	.	.	.
=262	=262	=262	=262	=262	=262	=262	=262
8EE-/L)	.	16.e-\LL)	.	16.gg\LL)	.	4.ff\_	.
.	.	32c\Jk	.	32ee-\Jk	.	.	.
8FF/	.	8B-\	.	8dd\	.	.	.
8EE-/J	.	8A\J	.	8cc\J	.	.	.
=263	=263	=263	=263	=263	=263	=263	=263
8DD/L	f	16.d\LL	f	16.ff\LL	f	8ff\]	f
.	.	32B-\JJk	.	32dd\JJk	.	.	.
8EE-/J	.	8A\ 8e-\	.	8cc\	.	[4gg\	.
8r	.	8r	.	8r	.	.	.
=264	=264	=264	=264	=264	=264	=264	=264
8r	.	8r	.	8r	.	8gg\]	.
8FF/	f	8F/ 8c/	f	8e-/ 8a/	f	4aa\	f
8r	.	8r	.	8r	.	.	.
=265	=265	=265	=265	=265	=265	=265	=265
.	.	.	.	.	.	ggq/LL	.
.	.	.	.	.	.	aaq/JJ	.
16BB-/LL	ff	16F/LL	ff	16d/LL 16b-/	ff	16bb-\LL	ff
16BB-/J	.	16F/J	.	16B-/J 16d/	.	16d\JJ 16b-\	.
8BB-/	.	8F/	.	8B-/ 8d/	.	8d/L 8b-/	.
8BB-/J	.	8F/J	.	8B-/J 8d/	.	8d/J 8b-/	.
=266	=266	=266	=266	=266	=266	=266	=266
16BB-/LL	.	16F/LL	.	16B-/LL 16d/	.	16d/LL 16b-/	.
16BB-/J	.	16F/J	.	16B-/J 16d/	.	16d/J 16b-/	.
8BB-/	.	8F/	.	8B-/ 8d/	.	8d/ 8b-/	.
8BB-/J	.	8F/J	.	8B-/J 8d/	.	8d/J 8b-/	.
=267	=267	=267	=267	=267	=267	=267	=267
16BB-/LL	.	16F/LL	.	16B-/LL 16d/	.	16d/LL 16b-/	.
16BB-/	.	16F/	.	16B-/ 16d/	.	16d/ 16b-/	.
16BB-/	.	16F/	.	16B-/ 16d/	.	16d/ 16b-/	.
16BB-/	.	16F/	.	16B-/ 16d/	.	16d/ 16b-/	.
16BB-/	.	16F/	.	16B-/ 16d/	.	16d/ 16b-/	.
16BB-/JJ	.	16F/JJ	.	16B-/JJ 16d/	.	16d/JJ 16b-/	.
=268	=268	=268	=268	=268	=268	=268	=268
4.B-\	.	4.f\	.	4.dd\	.	4.ddd\	.
=269	=269	=269	=269	=269	=269	=269	=269
16AA/LL	.	16F#/LL	.	16c/LL 16d/	.	16d/LL 16cc/	.
16AA/	.	16F#/	.	16c/ 16d/	.	16d/ 16cc/	.
16AA/	.	16F#/	.	16c/ 16d/	.	16d/ 16cc/	.
16AA/	.	16F#/	.	16c/ 16d/	.	16d/ 16cc/	.
16AA/	.	16F#/	.	16c/ 16d/	.	16d/ 16cc/	.
16AA/JJ	.	16F#/JJ	.	16c/JJ 16d/	.	16d/JJ 16cc/	.
=270	=270	=270	=270	=270	=270	=270	=270
4.A\	.	4.f#\	.	4.cc\	.	4.ddd\	.
=271	=271	=271	=271	=271	=271	=271	=271
4.r	.	16g\LL 16b-\	p	4.r	.	4.r	.
.	.	16g\ 16b-\	.	.	.	.	.
.	.	16g\ 16b-\	.	.	.	.	.
.	.	16g\ 16b-\	.	.	.	.	.
.	.	16g\ 16b-\	.	.	.	.	.
.	.	16g\JJ 16b-\	.	.	.	.	.
=272	=272	=272	=272	=272	=272	=272	=272
4.r	.	4.r	.	16ccc\LL	p	16eee-\LL	p
.	.	.	.	16ccc\	.	16eee-\	.
.	.	.	.	16ccc\	.	16eee-\	.
.	.	.	.	16ccc\	.	16eee-\	.
.	.	.	.	16ccc\	.	16eee-\	.
.	.	.	.	16ccc\JJ	.	16eee-\JJ	.
=273	=273	=273	=273	=273	=273	=273	=273
4.r	.	4.r	.	4.r	.	16f#/LL 16a/	.
.	.	.	.	.	.	16f#/ 16a/	.
.	.	.	.	.	.	16f#/ 16a/	.
.	.	.	.	.	.	16f#/ 16a/	.
.	.	.	.	.	.	16f#/ 16a/	.
.	.	.	.	.	.	16f#/JJ 16a/	.
=274	=274	=274	=274	=274	=274	=274	=274
16D\LL	p	4.r	.	4.r	.	4.r	.
16D\	.	.	.	.	.	.	.
16D\	.	.	.	.	.	.	.
16D\	.	.	.	.	.	.	.
16D\	.	.	.	.	.	.	.
16D\JJ	.	.	.	.	.	.	.
=275	=275	=275	=275	=275	=275	=275	=275
8GG/	.	16g\LL	.	16b-\LL	.	8G/	.
.	.	16g\	.	16b-\	.	.	.
8r	f	16g\	.	16b-\	.	16r	.
.	.	16g\	.	16b-\	.	16dd'\LL	.
8r	.	16g\	.	16b-\	.	16gg'\	.
.	.	16g\JJ	.	16b-\JJ	.	16bb-'\JJ	.
=276	=276	=276	=276	=276	=276	=276	=276
4.r	.	16a\LL	.	16cc\LL	.	(16bb-\LL	.
.	.	16a\	.	16cc\	.	16aa\JJ)	.
.	.	16a\	.	16cc\	.	16.aa'\LL	.
.	.	16a\	.	16cc\	.	.	.
.	.	.	.	.	.	32gg'\k	.
.	.	16a\	.	16cc\	.	16.ff#'\	.
.	.	16a\JJ	.	16cc\JJ	.	.	.
.	.	.	.	.	.	32dd'\JJk	.
=277	=277	=277	=277	=277	=277	=277	=277
16d'\LL	p	16b-\LL	.	16dd\LL	.	(8gg\L	.
16B-'\	.	16b-\	.	16dd\	.	.	.
16G'\	.	16b-\	.	16dd\	.	8bb-\	.
16D'\JJ	.	16b-\	.	16dd\	.	.	.
16BB-'/LL	.	16b-\	.	16dd\	.	[8ddd\J)	.
16GG'/JJ	.	16b-\JJ	.	16dd\JJ	.	.	.
=278	=278	=278	=278	=278	=278	=278	=278
8E-\	.	16g\LL	.	16cc\LL	.	(16ddd\LL]	.
.	.	16g\	.	16cc\	.	16ccc\JJ)	.
8r	.	16g\	.	16cc\	.	16.ccc'\LL	.
.	.	16g\	.	16cc\	.	.	.
.	.	.	.	.	.	32bb-'\k	.
8E-\	.	16g\	.	16cc#\	.	16.aa'\	.
.	.	16g\JJ	.	16cc#\JJ	.	.	.
.	.	.	.	.	.	32gg'\JJk	.
=279	=279	=279	=279	=279	=279	=279	=279
8D\	.	8a\	.	8dd\	.	(16gg\LL	.
.	.	.	.	.	.	16ff#\JJ)	.
8r	.	8r	.	8r	.	16ff#'\LL	.
.	.	.	.	.	.	16gg'\	.
8r	.	16r	.	16r	.	16aa'\	.
.	.	16g\	.	16b-\	.	16ee-'\JJ	.
=280	=280	=280	=280	=280	=280	=280	=280
8r	.	8f#\	.	8a/	.	(16ee-\LL	.
.	.	.	.	.	.	16dd\JJ)	.
8r	.	8r	.	8r	.	16dd'\LL	.
.	.	.	.	.	.	16cc#'\	.
16r	.	16r	.	8r	.	16dd'\	.
16E-\	.	16G/	.	.	.	16cc#'\JJ	.
=281	=281	=281	=281	=281	=281	=281	=281
8D\	.	8F#/	.	4.r	.	16dd'\LL	.
.	.	.	.	.	.	16ee-'\	.
8r	.	8r	.	.	.	16dd'\	.
.	.	.	.	.	.	16ee-'\	.
8r	.	8r	.	.	.	16dd'\	.
.	.	.	.	.	.	16ee-'\JJ	.
=282	=282	=282	=282	=282	=282	=282	=282
4.g\	.	4.r	.	4.b-\	.	8dd\L	.
.	.	.	.	.	.	(8dd\	.
.	.	.	.	.	.	ffq/	.
.	.	.	.	.	.	8een\J)	.
=283	=283	=283	=283	=283	=283	=283	=283
(8.f\L	.	(8.fn\L	.	(8.a\L	.	(8ff'\L	.
.	.	.	.	.	.	8ff'\	.
16e-\L	.	16a\L	.	16cc\L	.	.	.
16d\	.	16g\	.	16b-\	.	8ff'\J)	.
16c\JJ)	.	16a\JJ)	.	16ee-\JJ	.	.	.
=284	=284	=284	=284	=284	=284	=284	=284
4B-\	f	4b-\	f	4dd\)	f	(8.ff\L	f
.	.	.	.	.	.	16ff#\L	.
(16B-\LL	.	(16b-\LL	.	(16dd\LL	.	16gg\	.
16c\JJ)	.	16g\JJ)	.	16cc\JJ)	.	16ee-\JJ)	.
=285	=285	=285	=285	=285	=285	=285	=285
(8.d\L	p	(8f#'\L	p	(8a'/L	p	(8dd'\L	p
.	.	8f#'\	.	8a'/	.	8dd'\	.
16c\L	.	.	.	.	.	.	.
16B-\	.	8f#'\J)	.	8a'/J)	.	8dd'\J)	.
16A\JJ)	.	.	.	.	.	.	.
=286	=286	=286	=286	=286	=286	=286	=286
4.G\	.	(8g\L	.	4b-\	.	4dd\	.
.	.	8d\	.	.	.	.	.
.	.	8en\J)	.	[8b-\	.	[8bb-\	.
=287	=287	=287	=287	=287	=287	=287	=287
(8.F\L	.	(8fn'\L	.	16b-\LL]	.	16bb-\LL]	.
.	.	.	.	(16g\	.	(16gg\	.
.	.	8f'\	.	16a\	.	16aa\	.
16E-\L	.	.	.	16cc\	.	16ccc\	.
16D\	.	8f'\J)	.	16b-\	.	16bb-\	.
16C\JJ)	.	.	.	16ee-\JJ	.	16eee-\JJ	.
=288	=288	=288	=288	=288	=288	=288	=288
4BB-/	f	(8.f\	f	16dd/LL	f	16ddd\LL	f
.	.	.	.	16a/	.	16aa\	.
.	.	.	.	16b-/	.	16bb-\	.
.	.	8d/L	.	16f#/	.	16ff#\	.
(16BB-/LL	.	.	.	16g/	.	16gg\	.
16C/JJ)	.	16G/Jk)	.	16e-/JJ)	.	16ee-\JJ)	.
=289	=289	=289	=289	=289	=289	=289	=289
(8.D/L	p	8.F#/L	p	8.d/L	p	(8dd'\L	p
.	.	.	.	.	.	8dd'\	.
16C/L	.	(16A/L	.	(16f#/L	.	.	.
16BB-/	.	16B-/	.	16g/	.	8dd'\J)	.
16AA/JJ)	.	16f#/JJ)	.	16cc/JJ)	.	.	.
=290	=290	=290	=290	=290	=290	=290	=290
8.GG/L	.	16g'\LL	pp	16d'/LL 16b-'/	.	16dd'\LL	pp
.	.	16f#'\JJ	.	16d'/JJ 16a'/	.	16dd'\JJ	.
.	.	[4g\	.	[4d/ [4b-/	.	[4dd\	.
16D'/k	.	.	.	.	.	.	.
[8G'/J	.	.	.	.	.	.	.
=291	=291	=291	=291	=291	=291	=291	=291
8G\L]	.	8g\L]	.	8d/L] 8b-/]	.	8dd\L]	.
16D'\L	.	16f#'\L	.	16d'/L 16a'/	.	16dd'\L	.
16G'\J	.	16g'\J	.	16d'/J 16b-'/	.	16dd'\J	.
[8D\J	.	[8f#\J	.	[8d/J [8a/	.	[8dd\J	.
=292	=292	=292	=292	=292	=292	=292	=292
8D/L]	.	8f#\L]	.	8d/L] 8a/]	.	8dd\L]	.
16GG/L	.	16g\L	.	16d/L 16b-/	.	16dd\L	.
16D/J	.	16f#\J	.	16d/J 16a/	.	16dd\J	.
[8G/J	.	[8g\J	.	[8d/J [8b-/	.	[8dd\J	.
=293	=293	=293	=293	=293	=293	=293	=293
8G\L]	.	8g\L]	.	8d/L] 8b-/]	.	8dd\L]	.
16D\L	.	16f#\L	.	16d/L 16a/	.	16dd\L	.
16G\J	.	16g\J	.	16d/J 16b-/	.	16dd\J	.
8D\J	.	8f#\J	.	8d/J 8a/	.	[8dd\J	.
=294	=294	=294	=294	=294	=294	=294	=294
(8GG/	.	(8g\	.	(8b-\	.	(8dd\]	.
[4AA-/)	.	[4c\)	.	[4e-/)	.	[4cc\)	.
=295	=295	=295	=295	=295	=295	=295	=295
8AA-/L]	.	8c/L]	.	(8e-/L]	.	(8cc\L]	.
(8DD/	p	(8c/	p	8f#/	p	8a\	p
8GG/J)	.	8B-/J)	.	8g/J)	.	8b-\J)	.
=296	=296	=296	=296	=296	=296	=296	=296
(16.GG/LL	.	(16.B-/LL	.	(16.g/LL	.	(16.g/LL	.
32AA-/JJk)	.	32E-/JJk)	.	32c/JJk)	.	32cc/JJk)	.
[4AA-/	.	[4E-/	.	[4c/	.	[4cc\	.
=297	=297	=297	=297	=297	=297	=297	=297
(8AA-/L]	.	(8E-/L]	.	8c/L]	.	(8cc\L]	.
8DD/	p	8F#/	p	(8c/ 8d/	p	8a\	p
8GG/J)	.	8G/J)	.	8B-/J) 8d/	.	8b-\J)	.
=298	=298	=298	=298	=298	=298	=298	=298
16GG/LL	pp	16G/LL	pp	16G/LL	pp	16g/LL	pp
16GG/J	.	16G/J	.	16G/J	.	16g/J	.
8GG/	.	8G/	.	8G/	.	8g/	.
8GG/J	.	8G/J	.	8G/J	.	8g/J	.
=299	=299	=299	=299	=299	=299	=299	=299
16GG/LL	.	16G/LL	.	16G/LL	.	16g/LL	.
16GG/	.	16G/	.	16G/	.	16g/	.
16GG/	.	16G/	.	16G/	.	16g/	.
16GG/	.	16G/	.	16G/	.	16g/	.
16GG/	.	16G/	.	16G/	.	16g/	.
16GG/JJ	.	16G/JJ	.	16G/JJ	.	16g/JJ	.
=300	=300	=300	=300	=300	=300	=300	=300
(4.GG/	.	(4.G/	.	(4.G/	.	(4.g/	.
=301	=301	=301	=301	=301	=301	=301	=301
4.AA/	.	4.A/	.	4.A/	.	4.a/	.
=302	=302	=302	=302	=302	=302	=302	=302
4.BB-/	.	4.B-/	.	4.B-/	.	4.b-\	.
=303	=303	=303	=303	=303	=303	=303	=303
4DD-/	.	4D-/	.	4d-/	.	4d-/	.
8CC/)	.	8C/)	.	8c/)	.	8c/)	.
=304	=304	=304	=304	=304	=304	=304	=304
16FF/LL	pp	(4.F/	pp	4.r	.	(4.f/	.
16FF/J	.	.	.	.	.	.	.
8FF/	.	.	.	.	.	.	.
8FF/J	.	.	.	.	.	.	.
=305	=305	=305	=305	=305	=305	=305	=305
16FF/LL	.	4.D/	.	4.r	.	4.dn/	pp
16FF/J	.	.	.	.	.	.	.
8FF/	.	.	.	.	.	.	.
8FF/J	.	.	.	.	.	.	.
=306	=306	=306	=306	=306	=306	=306	=306
16FF/LL	.	[4.C/)	.	4.cc\	.	8c/L	.
16FF/	.	.	.	.	.	.	.
16FF/	.	.	.	.	.	8d/	.
16FF/	.	.	.	.	.	.	.
16FF/	.	.	.	.	.	8en/J	.
16FF/JJ	.	.	.	.	.	.	.
=307	=307	=307	=307	=307	=307	=307	=307
4.FF/	.	8C/L]	.	4c/ 4a/	.	4.f/)	.
.	.	8D/	.	.	.	.	.
.	.	8En/J	.	8B-/ 8g/	.	.	.
=308	=308	=308	=308	=308	=308	=308	=308
4.r	.	4F/	.	4A/ 4f/	.	16cc'\LL	.
.	.	.	.	.	.	16ff'\	.
.	.	.	.	.	.	16aa'\	.
.	.	.	.	.	.	16ff'\	.
.	.	8r	.	8r	.	16gg'\	.
.	.	.	.	.	.	16een'\JJ	.
=309	=309	=309	=309	=309	=309	=309	=309
4.r	.	4.r	.	4.r	.	8ff'\	.
.	.	.	.	.	.	4cc\	.
=310	=310	=310	=310	=310	=310	=310	=310
4.r	.	4.r	.	16dd'\LL	.	4.r	.
.	.	.	.	16cc'\	.	.	.
.	.	.	.	16b-'\	.	.	.
.	.	.	.	16a'\	.	.	.
.	.	.	.	16g'\	.	.	.
.	.	.	.	16cc'\JJ	.	.	.
=311	=311	=311	=311	=311	=311	=311	=311
4.r	.	4.r	.	8a'/	.	4.r	.
.	.	.	.	4f/	.	.	.
=312	=312	=312	=312	=312	=312	=312	=312
4.r	.	4.r	.	8a/	.	16a'\LL	.
.	.	.	.	.	.	16cc'\	.
.	.	.	.	4f/	.	16ff'\	.
.	.	.	.	.	.	16aa'\	.
.	.	.	.	.	.	16gg'\	.
.	.	.	.	.	.	16een'\JJ	.
=313	=313	=313	=313	=313	=313	=313	=313
4.r	.	4.r	.	4.r	.	16ff'\LL	.
.	.	.	.	.	.	16aa'\J	.
.	.	.	.	.	.	8.ccc\	.
.	.	.	.	.	.	16ddd\Jk	.
=314	=314	=314	=314	=314	=314	=314	=314
16r	.	4.r	.	16r	.	16ccc\LL	.
16d\LL	.	.	.	16a\LL 16cc\	.	16aa\	.
16d\	.	.	.	16a\ 16cc\	.	16ff\	.
16d\JJ	.	.	.	16a\J 16cc\	.	16gg\JJ	.
8d\	.	.	.	8a\J 8cc\	.	8ff\	.
=315	=315	=315	=315	=315	=315	=315	=315
.	.	.	.	.	.	ee-q/LLL	.
.	.	.	.	.	.	ffq/JJJ	.
(4.en\	pp	(4.een\	pp	16g#/LL 16bn/	pp	8een\	pp
.	.	.	.	16en/JJ	.	.	.
.	.	.	.	8e/L	.	8r	.
.	.	.	.	8e/J	.	8r	.
=316	=316	=316	=316	=316	=316	=316	=316
4.c\	.	4.cc\)	.	16en/LL	.	4.r	.
.	.	.	.	16e/JJ	.	.	.
.	.	.	.	8e/L	.	.	.
.	.	.	.	8e/J	.	.	.
=317	=317	=317	=317	=317	=317	=317	=317
[4.Bn\	.	(8bn\L	.	16en/LL	.	[4.bn\	.
.	.	.	.	16e/	.	.	.
.	.	8cc#\	.	16e/	.	.	.
.	.	.	.	16e/	.	.	.
.	.	8dd#\J	.	16e/	.	.	.
.	.	.	.	16e/JJ	.	.	.
=318	=318	=318	=318	=318	=318	=318	=318
(8B\L])	.	4.een\)	.	4.en/	.	(8b/L]	.
8G#\	.	.	.	.	.	8g#/	.
8A\J)	.	.	.	.	.	8a/J)	.
=319	=319	=319	=319	=319	=319	=319	=319
4.En\	pp	16Bn'\LL	.	4.en/	.	4.en/	.
.	.	16en'\	.	.	.	.	.
.	.	16g#'\	.	.	.	.	.
.	.	16e'\	.	.	.	.	.
.	.	16f#'\	.	.	.	.	.
.	.	16d#'\JJ	.	.	.	.	.
=320	=320	=320	=320	=320	=320	=320	=320
4.r	.	8en'\	.	4.r	.	4.r	.
.	.	4Bn'/	.	.	.	.	.
=321	=321	=321	=321	=321	=321	=321	=321
16c#'\LL	.	4.r	.	4.r	.	4.r	.
16Bn'\	.	.	.	.	.	.	.
16A'\	.	.	.	.	.	.	.
16G#'\	.	.	.	.	.	.	.
16F#'\	.	.	.	.	.	.	.
16B'\JJ	.	.	.	.	.	.	.
=322	=322	=322	=322	=322	=322	=322	=322
8G#'\	.	4.r	.	4.r	.	4.r	.
4En'\	.	.	.	.	.	.	.
=323	=323	=323	=323	=323	=323	=323	=323
4.r	.	16cc'\LL	.	4.r	.	4.r	.
.	.	16bn'\	.	.	.	.	.
.	.	16a'\	.	.	.	.	.
.	.	16g'\	.	.	.	.	.
.	.	16f#'\	.	.	.	.	.
.	.	16a'\JJ	.	.	.	.	.
=324	=324	=324	=324	=324	=324	=324	=324
4.r	.	16d#\LL	.	4r	.	4r	.
.	.	16f#\	.	.	.	.	.
.	.	16c\	.	.	.	.	.
.	.	16Bn\JJ	.	.	.	.	.
.	.	8r	.	16ff'\LL	.	16fffn'\LL	.
.	.	.	.	16een'\JJ	.	16eeen'\JJ	.
=325	=325	=325	=325	=325	=325	=325	=325
4.r	.	4r	.	16dd'\LL	.	16ddd'\LL	.
.	.	.	.	16cc'\	.	16ccc'\	.
.	.	.	.	16bn'\	.	16bbn'\	.
.	.	.	.	16a'\	.	16aa'\	.
.	.	16G#'/LL	.	16g#'\	.	16gg#'\	.
.	.	16Bn'/JJ	.	16b'\JJ	.	16bb'\JJ	.
=326	=326	=326	=326	=326	=326	=326	=326
.	.	Gnq/	.	gnq/	.	ggnq/	.
8r	f	(16F/LL	.	(16f/LL	.	(16ff/LL	.
.	.	16En/)	.	16en/)	.	16een/JJ)	.
GGq/	.	Gq/	.	gq/	.	gq/	.
(16FF/LL	.	(16F/	.	(16f/	.	(16f/LL	.
16EEn/JJ)	.	16E/)	.	16e/)	.	16en/)	.
GGq/	.	Gq/	.	gq/	.	gq/	.
(16FF/LL	.	(16F/	.	(16f/	.	(16f/	.
16EE/JJ)	.	16E/JJ)	.	16e/JJ)	.	16e/JJ)	.
=327	=327	=327	=327	=327	=327	=327	=327
16AA/LL	ff	16c#\LL 16en\	ff	8A/ 8a/	ff	16A/LL 16a/	ff
16AA/JJ	.	16c#\JJ 16e\	.	.	.	16A/JJ 16a/	.
8r	.	8r	.	16cc#\LL 16een\	.	8A/L 8a/	.
.	.	.	.	16cc#\JJ 16ee\	.	.	.
16AA/LL	.	16c#\LL 16e\	.	8r	.	8A/J 8a/	.
16AA/JJ	.	16c#\JJ 16e\	.	.	.	.	.
=328	=328	=328	=328	=328	=328	=328	=328
8r	.	8r	.	16cc#\LL 16een\	.	16A/LL 16a/	.
.	.	.	.	16cc#\JJ 16ee\	.	16A/JJ 16a/	.
16GG/LL	.	16c#\LL 16en\	.	16r	.	8A/L 8a/	.
16GG/JJ	.	16c#\JJ 16e\	.	16cc#\LL 16ee\	.	.	.
8r	.	8r	.	16cc#\JJ 16ee\	.	8A/J 8a/	.
.	.	.	.	16r	.	.	.
=329	=329	=329	=329	=329	=329	=329	=329
16FF/LL	.	16d\LL 16f\	.	8r	.	16A/LL 16a/	.
16FF/JJ	.	16d\JJ 16f\	.	.	.	16A/JJ 16a/	.
8r	.	8r	.	16dd\LL 16ff\	.	8A/L 8a/	.
.	.	.	.	16dd\JJ 16ff\	.	.	.
16FF/LL	.	16d\LL 16f\	.	8r	.	8A/J 8a/	.
16FF/JJ	.	16d\JJ 16f\	.	.	.	.	.
=330	=330	=330	=330	=330	=330	=330	=330
16DD/LL 16AA/	.	16Bn/LL	.	16dd\LL 16ff\	.	16A/LL 16g#/	.
16DD/ 16AA/	.	16B/	.	16dd\ 16ff\	.	16A/ 16g#/	.
16DD/ 16AA/	.	16B/	.	16dd\ 16ff\	.	16A/ 16g#/	.
16DD/ 16AA/	.	16B/	.	16dd\ 16ff\	.	16A/ 16g#/	.
16DD/ 16AA/	.	16B/	.	16dd\ 16ff\	.	16A/ 16g#/	.
16DD/JJ 16AA/	.	16B/JJ	.	16dd\JJ 16ff\	.	16A/JJ 16g#/	.
=331	=331	=331	=331	=331	=331	=331	=331
8AA/	ff	8c#\L	ff	16cc#\LL 16een\	ff	16A/LL 16a/	ff
.	.	.	.	16cc#\JJ 16ee\	.	16a/JJ 16aa/	.
16AA/LL	.	16c#\L 16en\	.	8r	.	8a\L 8aa\	.
16AA/JJ	.	16c#\JJ 16e\	.	.	.	.	.
8r	.	8r	.	16cc#\LL 16ee\	.	8a\J 8aa\	.
.	.	.	.	16cc#\JJ 16ee\	.	.	.
=332	=332	=332	=332	=332	=332	=332	=332
16GG/LL	.	16c#\LL 16en\	.	8r	.	16a\LL 16aa\	.
16GG/JJ	.	16c#\JJ 16e\	.	.	.	16a\JJ 16aa\	.
8r	.	8r	.	16cc#\LL 16een\	.	8a\L 8aa\	.
.	.	.	.	16cc#\JJ 16ee\	.	.	.
16GG/LL	.	16c#\LL 16e\	.	8r	.	8a\J 8aa\	.
16GG/JJ	.	16c#\JJ 16e\	.	.	.	.	.
=333	=333	=333	=333	=333	=333	=333	=333
8r	.	8r	.	16dd\LL 16ff\	.	16a\LL 16aa\	.
.	.	.	.	16dd\JJ 16ff\	.	16a\JJ 16aa\	.
16FF/LL	.	16d\LL 16f\	.	8r	.	8a\L 8aa\	.
16FF/JJ	.	16d\JJ 16f\	.	.	.	.	.
8r	.	8r	.	16dd\LL 16ff\	.	8a\J 8aa\	.
.	.	.	.	16dd\JJ 16ff\	.	.	.
=334	=334	=334	=334	=334	=334	=334	=334
16DD/LL 16AA/	.	16g#\LL	.	16ff\LL 16ddd\	.	16a\LL 16bbn\	.
16DD/ 16AA/	.	16g#\	.	16ff\ 16ddd\	.	16a\ 16bb\	.
16DD/ 16AA/	.	16g#\	.	16ff\ 16ddd\	.	16a\ 16bb\	.
16DD/ 16AA/	.	16g#\	.	16ff\ 16ddd\	.	16a\ 16bb\	.
16DD/ 16AA/	.	16g#\	.	16ff\ 16ddd\	.	16a\ 16bb\	.
16DD/JJ 16AA/	.	16g#\JJ	.	16ff\JJ 16ddd\	.	16a\JJ 16bb\	.
=335	=335	=335	=335	=335	=335	=335	=335
16AA/LL	pp	16a\LL	pp	16een\LL 16ccc#\	.	8a\ 8aa\	pp
16AA/	.	16A\JJ	.	16a\	.	.	.
16AA/	.	16A/LL	.	16a\	.	8r	.
16AA/	.	16A/	.	16a\	.	.	.
16AA/	.	16A/	.	16a\	.	8r	.
16AA/JJ	.	16A/JJ	.	16a\JJ	.	.	.
=336	=336	=336	=336	=336	=336	=336	=336
16C/LL	.	16cn\LL	.	16ccn\LL	.	4r	.
16C/	.	16c\	.	16cc\	.	.	.
16C/	.	16c\	.	16cc\	.	.	.
16C/JJ	.	16c\JJ	.	16cc\JJ	.	.	.
16FF/LL	.	16F/LL	.	16f/LL	.	16ee-\LL 16ffn\	.
16FF/JJ	.	16F/JJ	.	16f/JJ	.	16ee-\JJ 16ff\	.
=337	=337	=337	=337	=337	=337	=337	=337
16BB-/LL 16D/	ff	16F'/LL	ff	16f'/LL	ff	16ff'\LL	ff
16BB-/JJ 16D/	.	16B-'/	.	16b-'/	.	16bb-'\	.
8BB-/L 8D/	.	16d'/	.	16dd'/	.	16ddd'\	.
.	.	16B-'/	.	16b-'/	.	16bb-'\	.
8BB-/J 8E-/	.	16cn'/	.	16ccn'/	.	16cccn'\	.
.	.	16A'/JJ	.	16a'/JJ	.	16aa'\JJ	.
=338	=338	=338	=338	=338	=338	=338	=338
16BB-/LL 16D/	.	8B-'/	.	8b-'\	.	8bb-'\	.
16BB-/JJ 16D/	.	.	.	.	.	.	.
8BB-/L 8D/	.	4F/	.	4f/	.	4ff\	.
8BB-/J 8D/	.	.	.	.	.	.	.
=339	=339	=339	=339	=339	=339	=339	=339
16BB-\LL 16E-\	.	16G/LL	.	16g/LL	.	16gg\LL	.
16BB-\ 16F\	.	16F/	.	16f/	.	16ff\	.
16BB-\ 16G\	.	16E-/	.	16e-/	.	16ee-\	.
16BB-\ 16F\	.	16D/	.	16d/	.	16dd\	.
16BB-\ 16E-\	.	16C/	.	16c/	.	16cc\	.
16BB-\JJ 16E-\	.	16A/JJ	.	16f/JJ	.	16ff\JJ	.
=340	=340	=340	=340	=340	=340	=340	=340
16BB-\LL	.	16D/LL	.	8B-/ 8d/	.	8dd'\	.
16D\	.	16F/	.	.	.	.	.
16F\	.	16B-/	.	4B-/	.	4b-\	.
16B-\	.	16d/	.	.	.	.	.
16d\	.	16f/	.	.	.	.	.
16c\JJ	.	16e-/JJ	.	.	.	.	.
=341	=341	=341	=341	=341	=341	=341	=341
16B-\LL	.	16d/LL	.	16d'/LL	.	16dd'\LL	.
16F\JJ	.	16B-/	.	16f'/	.	16ff'\	.
16D/LL	.	16F/	.	16b-'/	.	16bb-'\	.
16BB-/	.	16F/	.	16dd'/	.	16ddd'\	.
16F/	.	16F/	.	16cc'/	.	16ccc'\	.
16FF/JJ	.	16E-/JJ	.	16a'/JJ	.	16aa'\JJ	.
=342	=342	=342	=342	=342	=342	=342	=342
16BB-/LL	.	16D/LL	.	16b-\LL	.	16bb-\LL	.
16BB-/JJ	.	16D/JJ	.	16dd\J	.	16ddd\JJ	.
16B-\LL	.	16d\LL	.	8.ff\	.	8.fff\L	.
16B-\	.	16d\	.	.	.	.	.
16B-\	.	16d\	.	.	.	.	.
16B-\JJ	.	16d\JJ	.	16gg\Jk	.	16ggg\Jk	.
=343	=343	=343	=343	=343	=343	=343	=343
16B-\LL	.	16d/LL	.	8ff'\	p	16fff'\LL	.
16BB-\JJ	.	16D/JJ	.	.	.	16ddd'\	.
16B-\LL	.	16d\LL	.	8r	.	16bb-'\	.
16B-\	.	16d\	.	.	.	16ccc'\JJ	.
16B-\	.	16d\	.	16r	.	8bb-\	.
16B-\JJ	p	16d\JJ	p	(16ff\	.	.	.
=344	=344	=344	=344	=344	=344	=344	=344
.	.	.	.	.	.	aaq/LL	.
.	.	.	.	.	.	bb-q/JJ	.
16c\LL	.	16e-/LL	.	16ee-\LL)	.	8aa\	p
16C\	.	16E-/	.	16cc'\	.	.	.
16c\	.	16e-/	.	16a'\	.	8r	.
16c\JJ	.	16e-/JJ	.	16b-'\JJ	.	.	.
16c\LL	.	16e-\LL	.	8a/	.	8r	.
16c\JJ	p	16e-\JJ	p	.	.	.	.
=345	=345	=345	=345	=345	=345	=345	=345
.	.	.	.	gq/LL	.	.	.
.	.	.	.	aq/JJ	.	.	.
16c\LL	.	16e-/LL	.	4.r	p	16eee-'\LL	.
16C\	.	16E-/JJ	.	.	.	16ccc'\	.
16c\	.	16e-\LL	.	.	.	16aa'\	.
16c\JJ	.	16e-\	.	.	.	16bb-'\JJ	.
16c\LL	.	16e-\	.	.	.	8aa\	.
16c\JJ	p	16e-\JJ	p	.	.	.	.
=346	=346	=346	=346	=346	=346	=346	=346
.	.	.	.	.	.	ggq/LL	.
.	.	.	.	.	.	aaq/JJ	.
16d\LL	.	16f/LL	.	16ff'\LL	.	4.r	p
16D\	.	16F/	.	16dd'\	.	.	.
16d\	.	16f/	.	16b-'\	.	.	.
16d\JJ	.	16f/JJ	.	16cc'\JJ	.	.	.
16d\LL	.	16f\LL	.	8b-\	.	.	.
16d\JJ	p	16f\JJ	p	.	.	.	.
=347	=347	=347	=347	=347	=347	=347	=347
.	.	.	.	aq/LL	.	.	.
.	.	.	.	b-q/JJ	.	.	.
16e-\LL	.	16g\LL	.	8r	p	16bb-'\LL	.
16E-\	.	16G\	.	.	.	16gg'\	.
16e-\	.	16g\	.	8r	.	16cc'\	.
16e-\JJ	.	16g\JJ	.	.	.	16dd'\JJ	.
16en\LL	.	16g\LL	.	16b-'\LL	.	8cc\	.
16e\JJ	p	16g\JJ	p	16cc'\JJ	.	.	.
=348	=348	=348	=348	=348	=348	=348	=348
.	.	.	.	.	.	bnq/LL	.
.	.	.	.	.	.	ccq/JJ	.
16f\LL	.	16a\LL	.	16a'/LL	.	4r	p
16F\	.	16A\	.	16f'/	.	.	.
16f\	.	16a\	.	16c'/	.	.	.
16f\JJ	.	16a\JJ	.	16d'/JJ	.	.	.
16en\LL	.	16g\LL	.	8c/	.	16bb-'\LL	.
16e\JJ	p	16g\JJ	p	.	.	16ccc'\JJ	p
=349	=349	=349	=349	=349	=349	=349	=349
.	.	.	.	Bnq/LL	.	.	.
.	.	.	.	cq/JJ	.	.	.
16f\LL	.	16a\LL	.	8r	p	16aa'\LL	.
16F\	.	16A\	.	.	.	16ff'\	.
16F\	.	16A\	.	8r	.	16cc'\	.
16F\JJ	.	16A\JJ	.	.	.	16dd'\JJ	.
16En\LL	.	16G/LL	.	16b-'\LL	.	8cc\	.
16E\JJ	p	16G/JJ	p	16cc'\JJ	.	.	.
=350	=350	=350	=350	=350	=350	=350	=350
.	.	.	.	.	.	b-q/LL	.
.	.	.	.	.	.	ccq/JJ	.
16F\LL	.	16A\LL	.	16a'/LL	.	4r	p
16f\	.	16a\	.	16f'/	.	.	.
16f\	.	16a\	.	16c'/	.	.	.
16f\JJ	.	16a\JJ	.	16d'/JJ	.	.	.
16en\LL	.	16g\LL	.	8c/	.	16bb-'\LL	.
16e\JJ	p	16g\JJ	p	.	.	16ccc'\JJ	p
=351	=351	=351	=351	=351	=351	=351	=351
.	.	.	.	Bnq/LL	.	.	.
.	.	.	.	cq/JJ	.	.	.
8f\	f	8a\	p	8r	f	16aa'\LL	.
.	.	.	.	.	.	16ff'\	.
8r	.	8r	.	8r	.	16dd'\	.
.	.	.	.	.	.	16cc'\JJ	.
8r	.	8r	.	16a'/LL	f	8r	.
.	.	.	.	16f'/JJ	.	.	.
=352	=352	=352	=352	=352	=352	=352	=352
4r	.	8r	.	4.r	f	16d'/LL	.
.	.	.	.	.	.	16c'/JJ	.
.	.	16A'/LL	.	.	.	8r	.
.	.	16F'/JJ	.	.	.	.	.
16D'\LL	f	8r	.	.	.	8r	.
16C'/JJ	.	.	.	.	.	.	.
=353	=353	=353	=353	=353	=353	=353	=353
4FF/	.	4.r	.	4.r	.	4.r	.
8r	.	.	.	.	.	.	.
=354	=354	=354	=354	=354	=354	=354	=354
4.r	.	4.r	.	4.r	p	16.b-\LL	.
.	.	.	.	.	.	32cc\JJk	.
.	.	.	.	.	.	8dd-\L	.
.	.	.	.	.	.	8ee-\J	.
=355	=355	=355	=355	=355	=355	=355	=355
8r	.	8r	.	8r	.	4ff\	.
4B-\	f	4c-\	f	4f/	f	.	.
.	.	.	.	.	.	8gg-\	f
=356	=356	=356	=356	=356	=356	=356	=356
4B-\	.	4e-\	.	4g-/	.	16aa-'\LL	.
.	.	.	.	.	.	16gg-'\	.
.	.	.	.	.	.	16ff'\	.
.	.	.	.	.	.	16ee-'\	.
8B-\	.	[8f\	.	8an/	.	16dd-'\	.
.	.	.	.	.	.	16cc'\JJ	.
=357	=357	=357	=357	=357	=357	=357	=357
8B-\	p	8f\]	p	8b-\	p	16dd-'\LL	p
.	.	.	.	.	.	16cc'\	.
8r	.	16r	.	8r	.	16b-'\JJ	.
.	.	16g-'\LL	.	.	.	16r	.
8r	.	16f'\	.	8r	.	8r	.
.	.	16e-'\JJ	.	.	.	.	.
=358	=358	=358	=358	=358	=358	=358	=358
8r	.	16d-'\LL	.	(16.b-\LL	.	[4.bb-\	.
.	.	16c'\	.	.	.	.	.
.	.	.	.	32cc\JJk	.	.	.
16r	.	16B-'\JJ	.	8dd-\L	.	.	.
16G-'\LL	.	16r	.	.	.	.	.
16F'\	.	8r	.	8ee-\J)	.	.	.
16E-'\JJ	.	.	.	.	.	.	.
=359	=359	=359	=359	=359	=359	=359	=359
16D-'/LL	.	4.r	.	(4ff\	.	4bb-\]	.
16C'/	.	.	.	.	.	.	.
16BB-'/	.	.	.	.	.	.	.
16GG-'/	.	.	.	.	.	.	.
16FF'/	.	.	.	8gg-\	.	[8bb-\	.
16EE-'/JJ	.	.	.	.	.	.	.
=360	=360	=360	=360	=360	=360	=360	=360
16DD-'/LL	.	4.r	.	16aa-'\LL)	.	8bb-\L]	.
16EE-'/JJ	.	.	.	16gg-'\	.	.	.
4FF/	.	.	.	16ff'\	.	16ddd-'\L	.
.	.	.	.	16ee-'\	.	16ccc'\	.
.	.	.	.	16dd-'\	.	16bb-'\	.
.	.	.	.	16cc'\JJ	.	16aa'\JJ	.
=361	=361	=361	=361	=361	=361	=361	=361
8BB-/	p	8r	.	8b-\L	.	8bb-\	p
8r	.	8d-\L	p	8B-/ 8f/	.	8r	.
8r	.	8d-\J	.	8B-/J 8f/	.	(8dd-\	.
=362	=362	=362	=362	=362	=362	=362	=362
8FF'/L	.	(8e-\L	.	8A/L 8f/	.	16.cc\LL	.
.	.	.	.	.	.	32b-\JJk	.
8F/	.	8c\	.	8e-/	.	8a\L	.
8F/J	.	8A\J)	.	8e-/J	.	8cc\J)	.
=363	=363	=363	=363	=363	=363	=363	=363
8B-\L	.	(8B-\L	.	(8d-/L	.	(4b-\	.
(8BB-\	.	8d-\)	.	8f/)	.	.	.
8GG\J	.	8d-\J	.	8f/J	.	8ff\)	.
=364	=364	=364	=364	=364	=364	=364	=364
8AA-\L)	.	(8c\L	.	(8e-/L	.	(16.ee-\LL	.
.	.	.	.	.	.	32dd-\Jk	.
8A-\	.	8e-\	.	8g-/)	.	8cc\	.
8A-\J	.	8c\J)	.	8g-/J	.	8ee-\J)	.
=365	=365	=365	=365	=365	=365	=365	=365
8d-\L	.	(8d-\L	.	(8f/L	.	(4dd-\	.
(8D-\	.	8f\)	.	8a-/)	.	.	.
8BBn\J	.	8f\J	.	8a-/J	.	8aa-\)	.
=366	=366	=366	=366	=366	=366	=366	=366
8C\L)	.	(8en/L	.	(8gn/L	.	(16.gg\LL	.
.	.	.	.	.	.	32ff\Jk	.
8c\	.	8g/)	.	8b-\)	.	8een\	.
8C\J	.	8En/J	.	8b-\J	.	8gg\J)	.
=367	=367	=367	=367	=367	=367	=367	=367
(16.FF/LL	.	(16.F/LL	.	(8a-/L	.	(4ff\	.
32GG/Jk	.	32G/Jk	.	.	.	.	.
8AA-/	.	8A-/	.	8f/	.	.	.
8BB-/J	.	8B-/J	.	8g/J	.	8gg\	.
=368	=368	=368	=368	=368	=368	=368	=368
4C/	.	4c\	.	4an/	.	4aan\	.
8D-\	.	8d-\	.	(8b-\)	.	(8bb-\)	.
=369	=369	=369	=369	=369	=369	=369	=369
16E-'/LL)	.	16e-'/LL)	.	16cc\LL)	.	16ccc\LL)	.
16D-'/	.	16d-'/	.	16een\	.	16eeen'\	.
16C'/	.	16c'/	.	16ee'\	.	16eee'\	.
16BB-'/	.	16B-'/	.	16ee'\	.	16eee'\	.
16AA-'/	.	16A-'/	.	16ee'\JJ	.	16eee'\	.
16GG'/JJ	.	16G'/JJ	.	16ee'\	.	16eee'\JJ	.
=370	=370	=370	=370	=370	=370	=370	=370
16AA-'/LL	.	16A-'\LL	.	16ff'/LL	.	16fff'\LL	.
16GG'/JJ	.	16G'\	.	16b-'/	.	16fff'\	.
4FF/	.	16F'\	.	16a-'/	.	16fff'\	.
.	.	16g-'\	.	16an'/	.	16eee-'\	.
.	.	16f'\	.	16b-'/	.	16ddd-'\	.
.	.	16e-'\JJ	.	16f'/JJ	.	16ccc'\JJ	.
=371	=371	=371	=371	=371	=371	=371	=371
8r	.	16d-'\LL	.	(16.b-\LL	.	(16.bb-\LL	.
.	.	16c'\	.	.	.	.	.
.	.	.	.	32cc\Jk	.	32ccc\Jk	.
16r	.	16B-'\	.	8dd-\	.	8ddd-\	.
16G-'\LL	.	16B-'\	.	.	.	.	.
16F'\	.	16B-'\	.	8ee-\J)	.	8eee-\J)	.
16E-'\JJ	.	16B-'\JJ	.	.	.	.	.
=372	=372	=372	=372	=372	=372	=372	=372
16D-'/LL	.	16B-'\LL	.	4ff\	.	4fff\	.
16C'/	.	16B-'\	.	.	.	.	.
16BB-'/	.	16B-'\	.	.	.	.	.
16GG-'/	.	16b-'\	.	.	.	.	.
16FF'/	.	16B-'\	.	(8gg-\	.	(8ggg-\	.
16EE-'/JJ	.	16B-'\JJ	.	.	.	.	.
=373	=373	=373	=373	=373	=373	=373	=373
16DD'/LL	.	16B-'/LL	.	16aa-'\LL)	.	16aaa-\LL)	.
16EE-'/JJ	.	16B-'/	.	16gg-'\	.	16ggg-'\	.
4FF/	.	16A'/	.	16ff'\	.	16fff'\	.
.	.	16c'/	.	16ee-'\	.	16eee-'\	.
.	.	16F'/	.	16dd-'\	.	16ddd-'\	.
.	.	16f'/JJ	.	16cc'\JJ	.	16ccc'\JJ	.
=374	=374	=374	=374	=374	=374	=374	=374
8BB-/	.	8B-/	.	8b-\	.	16bb-\LL	.
.	.	.	.	.	.	16f\	.
8r	.	8r	.	8r	.	16f\	p
.	.	.	.	.	.	16f\	.
*clefC4	*clefG2	*	*	*	*	*	*
8d-\	.	8r	.	8r	.	16f\	.
.	.	.	.	.	.	16f\JJ	.
=375	=375	=375	=375	=375	=375	=375	=375
16.c\LL	p	4r	.	4r	.	16e-/LL	.
.	.	.	.	.	.	16f/	.
32B-\Jk	.	.	.	.	.	.	.
8An\	.	.	.	.	.	16c/	.
.	.	.	.	.	.	16f/JJ	.
8c\J	.	8e-\	.	8a/	p	16ff\LL	.
.	.	.	.	.	.	16ff\JJ	.
=376	=376	=376	=376	=376	=376	=376	=376
4B-\	.	16.d-\LL	.	16.b-\LL	.	16ff\LL	.
.	.	.	.	.	.	16ff\	.
.	.	32c\JJk	.	32cc\Jk	.	.	.
.	.	4B-/	.	8dd-\J	.	16ff\	.
.	.	.	.	.	.	16ff\JJ	.
8f\	.	.	.	8r	.	16a-/LL	.
.	.	.	.	.	.	16a-/JJ	.
=377	=377	=377	=377	=377	=377	=377	=377
16.e-\LL	.	4r	.	4r	.	16a-/LL	.
.	.	.	.	.	.	16a-/	.
32d-\Jk	.	.	.	.	.	.	.
8c\	.	.	.	.	.	16a-/	.
.	.	.	.	.	.	16a-/JJ	.
8e-\J	.	8g-\	.	8ccn\	.	16aa-\LL	.
.	.	.	.	.	.	16aa-\JJ	.
=378	=378	=378	=378	=378	=378	=378	=378
4d-\	.	16.f\LL	.	16.dd-\LL	.	16aa-\LL	.
.	.	.	.	.	.	16aa-\	.
.	.	32e-\JJk	.	32ee-\Jk	.	.	.
.	.	4d-\	.	8ff\J	.	16aa-\	.
.	.	.	.	.	.	16aa-\JJ	.
8a-\	.	.	.	8r	.	16cc\LL	.
.	.	.	.	.	.	16cc\JJ	.
=379	=379	=379	=379	=379	=379	=379	=379
16.g\LL	.	4r	.	4r	.	16b-/LL	.
.	.	.	.	.	.	16cc/	.
32f\Jk	.	.	.	.	.	.	.
8en\	.	.	.	.	.	16g/	.
.	.	.	.	.	.	16cc/	.
8g\J	.	8b-\	.	8een\	.	16cc/	.
.	.	.	.	.	.	16cc/JJ	.
=380	=380	=380	=380	=380	=380	=380	=380
16.f\LL	.	16.a-\LL	.	16.ff\LL	.	16cc\LL	.
.	.	.	.	.	.	16ff\	.
32g\Jk	.	32b-\Jk	.	32een\Jk	.	.	.
8a-\	.	8cc\	.	8ff\	.	16ff\	.
.	.	.	.	.	.	16fff\	.
8b-\J	.	8dd-\J	.	8gg\J	.	16fff\	.
.	.	.	.	.	.	16fff\JJ	.
=381	=381	=381	=381	=381	=381	=381	=381
4cc\	.	4ee-\	.	4aan\	.	16fff\LL	.
.	.	.	.	.	.	16fff\	.
.	.	.	.	.	.	16fff\	.
.	.	.	.	.	.	16fff\	.
(8dd-\	.	(8ff\	.	(8bb-\	.	16fff\	.
.	.	.	.	.	.	16fff\JJ	.
=382	=382	=382	=382	=382	=382	=382	=382
16ee-\LL)	.	16gg-\LL)	.	16ccc\LL)	.	16fff\LL	.
16dd-'\	.	16ff'\	.	16bb-'\	.	16fff\	.
16cc'\	.	16ee-'\	.	16aa-'\	.	16fff\	.
16b-'\	.	16dd-'\	.	16gg'\	.	16fff\	.
16a-'\	.	16cc'\	.	16ff'\	.	16fff\	.
16g'\JJ	.	16b-'\JJ	.	16een'\JJ	.	16fff\JJ	.
=383	=383	=383	=383	=383	=383	=383	=383
16a-\LL	.	16cc\LL	.	16ff\LL	.	16fff\LL	.
16g-\	.	16b-\	.	16ee-\	.	16fff\	.
16f\	.	16a-\	.	16dd-\	.	16fff\	.
16e-\	.	16g-\	.	16cc\	.	16ff\	.
16d-\	.	16f\	.	16b-\	.	16gg\	.
16c\JJ	.	16e-\JJ	.	16a/JJ	.	16aan\JJ	.
=384	=384	=384	=384	=384	=384	=384	=384
*clefF4	*clefF4	*	*	*	*	*	*
8B-\	.	16d-'\LL	.	(16.b-\LL	.	(16.bb-\LL	.
.	.	16c'\	.	.	.	.	.
.	.	.	.	32cc\Jk	.	32ccc\Jk	.
16r	.	16B-'\	.	8dd-\	.	8ddd-\	.
16G-'\LL	.	16B-\	.	.	.	.	.
16F'\	.	16B-\	.	8ee-\J)	.	8eee-\J)	.
16E-'\JJ	.	16B-\JJ	.	.	.	.	.
=385	=385	=385	=385	=385	=385	=385	=385
16D-'/LL	.	16B-\LL	.	4ff\	.	4fff\	.
16C'/	.	16B-\	.	.	.	.	.
16BB-'/	.	16B-\	.	.	.	.	.
16GG-/	.	16b-\	.	.	.	.	.
16FF/	.	16b-\	.	(8gg-\	.	(8ggg-\	.
16EE-/JJ	.	16b-\JJ	.	.	.	.	.
=386	=386	=386	=386	=386	=386	=386	=386
16DD-/LL	.	16b-\LL	.	16aa-'\LL)	.	16aaa-'\LL)	.
16EE-/JJ	.	16B-\	.	16gg-'\	.	16ggg-'\	.
8.FF/L	.	16A\	.	16ff'\	.	16fff'\	.
.	.	16c\	.	16ee-'\	.	16eee-'\	.
.	.	16F\	.	16dd-'\	.	16ddd-'\	.
16FF/Jk	.	16f\JJ	.	16cc'\JJ	.	16ccc'\JJ	.
=387	=387	=387	=387	=387	=387	=387	=387
8BB-/	p	8f\	p	8dd-\L	p	16ddd-'\LL	p
.	.	.	.	.	.	16ccc'\	.
8r	.	8r	.	16r	.	16bb-'\JJ	.
.	.	.	.	16gg-'\L	.	16r	.
8r	.	16r	.	16ff'\	.	8r	.
.	.	16f\	.	16ee-'\JJ	.	.	.
=388	=388	=388	=388	=388	=388	=388	=388
4r	.	8b-\	.	16dd-'\LL	.	4.r	.
.	.	.	.	16cc'\	.	.	.
.	.	16r	.	16b-'\JJ	.	.	.
.	.	16g-'\LL	.	16r	.	.	.
16r	.	16f'\	.	8r	.	.	.
16F\	.	16e-'\JJ	.	.	.	.	.
=389	=389	=389	=389	=389	=389	=389	=389
8B-\	.	16d-'\LL	.	4.r	.	4r	.
.	.	16c'\	.	.	.	.	.
16r	.	16B-'\JJ	.	.	.	.	.
16G-'\LL	.	16r	.	.	.	.	.
16F'\	.	8r	.	.	.	16r	pp
16E-'\JJ	.	.	.	.	.	16f/	.
=390	=390	=390	=390	=390	=390	=390	=390
16D-/LL	pp	16r	.	16r	.	16b-\LL	.
16C/JJ	.	16B-/	pp	16f/	.	16dd-\J	.
8BB-/L	.	8B-/L	.	8f/L	pp	8dd-\	.
8GG-/J	.	8B-/J	.	8g-/J	.	8dd-\J	.
=391	=391	=391	=391	=391	=391	=391	=391
16EE-/LL	.	16B-/LL	.	16g-/LL	.	16cc\LL	.
16EE-/JJ	.	16B-/JJ	.	16g-/J	.	16cc\J	.
8CC/L	.	8B-/L	.	8g-/	.	8cc\	.
8FF/J	.	8A/J	.	8f/J	.	8cc\J	.
=392	=392	=392	=392	=392	=392	=392	=392
16BB-\LL	.	16B-\LL	.	16f\LL	.	16dd-\LL	.
16B-\JJ	.	16b-\JJ	.	16ff\JJ	.	16ddd-\JJ	.
16G-\LL	.	16b-\LL	.	16gg-\LL	.	16ddd-\LL	.
16G-\	.	16b-\	.	16gg-\	.	16ddd-\	.
16E-\	.	16b-\	.	16gg-\	.	16eee-\	.
16E-\JJ	.	16b-\JJ	.	16gg-\JJ	.	16eee-\JJ	.
=393	=393	=393	=393	=393	=393	=393	=393
16C-/LL	.	16a-\LL	.	16gg-\LL	.	16eee-\LL	.
16C-/	.	16a-\	.	16gg-\	.	16eee-\	.
16AA-/	.	16cc\	.	16gg-\	.	16eee-\	.
16AA-/	.	16cc\	.	16gg-\	.	16eee-\	.
16D-/	.	16cc\	.	16ff\	.	16ddd-\	.
16D-/JJ	.	16cc\JJ	.	16ff\JJ	.	16ddd-\JJ	.
=394	=394	=394	=394	=394	=394	=394	=394
16GG-'/LL	.	16b-\LL	.	8.gg-\L	.	[4.ddd-\	.
16G-'/	.	16B-'\JJ	.	.	.	.	.
16G-'/	.	16B-'/LL	.	.	.	.	.
16G-'/	.	16B-'/	.	16dd-'\L	.	.	.
16G-'/	.	16B-'/	.	16gg-'\	.	.	.
16G-'/JJ	.	16B-'/JJ	.	16bb-'\JJ	.	.	.
=395	=395	=395	=395	=395	=395	=395	=395
16A-'\LL	.	16c-'\LL	.	16aa-'\LL	.	4.ddd-\_	.
16A-'\	.	16c-'\	.	16gg-'\	.	.	.
16A-'\	.	16c-'\	.	16ff'\	.	.	.
16A-'\	.	16d-'\	.	16ee-'\	.	.	.
16A-'\	.	16a-'\	.	16ff'\	.	.	.
16A-'\JJ	.	16cc-'\JJ	.	16dd-'\JJ	.	.	.
=396	=396	=396	=396	=396	=396	=396	=396
8B-\	.	16b-'\LL	.	16gg-'\LL	.	8.ddd-\]	.
.	.	16d-'\	.	16bb-'\	.	.	.
16r	.	16g-'\	.	16ddd-'\	.	.	.
16DD-'/LL	.	16b-'\JJ	.	16dd-'\	.	8ddd-\L	.
16GG-'/	.	8r	.	16b-'\	.	.	.
16BB-'/JJ	.	.	.	16g-'/JJ	.	[16ddd-\Jk	.
=397	=397	=397	=397	=397	=397	=397	=397
16AA-'/LL	.	16r	.	8f/	.	16ddd-\LK]	.
16GG-'/	.	16D-'/LL	.	.	.	8ccc-\	.
16FF'/	.	16A-'/	.	16r	.	.	.
16EE-'/	.	16c-'/JJ	.	16a-/LL	.	8ccc-\	.
16FF'/	.	16r	.	16d-/	.	.	.
16DD-'/JJ	.	16f'\	.	16dd-/JJ	.	[16ccc-\Jk	.
=398	=398	=398	=398	=398	=398	=398	=398
16GG-'/LL	.	8g-'\	.	16dd-\LK	.	16ccc-\LK]	.
16BB-'/	.	.	.	8dd-\	.	8bb-\	.
16D-'/JJ	.	16r	.	.	.	.	.
16r	.	16G-'/LL	.	8dd-\	.	8bb-\	.
8r	.	16B-'/	.	.	.	.	.
.	.	16d-'/JJ	.	16dd-\Jk	.	[16bb-\Jk	.
=399	=399	=399	=399	=399	=399	=399	=399
4.r	.	4.r	.	16g-'/LL	.	16bb-\LK]	.
.	.	.	.	16b-'\	.	8bb-\	.
.	.	.	.	16dd-'\JJ	.	.	.
.	.	.	.	16r	.	16gg-'\L	.
.	.	.	.	8r	.	16bb-'\	.
.	.	.	.	.	.	16ddd-'\JJ	.
=400	=400	=400	=400	=400	=400	=400	=400
16FF'/LL	.	8r	.	16r	.	16r	.
16BB-'/	.	.	.	8dd-\L	.	8bb-\L	.
16D-'/JJ	.	16r	.	.	.	.	.
16r	.	16F'/LL	.	8dd-\	.	8bb-\	.
8r	.	16B-'/	.	.	.	.	.
.	.	16d-'/JJ	.	16dd-\Jk	.	[16bb-\Jk	.
=401	=401	=401	=401	=401	=401	=401	=401
4.r	.	4.r	.	16f'/LL	.	16bb-\LK]	.
.	.	.	.	16b-'/	.	8bb-\J	.
.	.	.	.	16dd-'/JJ	.	.	.
.	.	.	.	16r	.	16ff'\LL	.
.	.	.	.	8r	.	16bb-'\	.
.	.	.	.	.	.	16ddd-'\JJ	.
=402	=402	=402	=402	=402	=402	=402	=402
16EEn/LL	.	16r	.	8r	.	16r	.
16GG/	.	16En/LL	.	.	.	8b-\ 8bb-\	.
16BB-/JJ	.	16G/	.	16en/LL	.	.	.
16r	.	16B-/JJ	.	16g/	.	16een\LL	.
8r	.	8r	.	16b-/JJ	.	16gg\	.
.	.	.	.	16r	.	16bb-\JJ	.
=403	=403	=403	=403	=403	=403	=403	=403
16DD-/LL	.	16r	.	8r	.	16r	.
16FF/	.	16D-/LL	.	.	.	8b-\ 8bb-\	.
16BB-/JJ	.	16F/	.	16d-/LL	.	.	.
16r	.	16B-/JJ	.	16f/	.	16dd-\LL	.
8r	.	8r	.	16b-/JJ	.	16ff\	.
.	.	.	.	16r	.	16bb-\JJ	.
=404	=404	=404	=404	=404	=404	=404	=404
16CC'/LL	p	8En/	p	8g/ 8b-/	p	8b-\ 8bb-\	p
16EEn'/	.	.	.	.	.	.	.
16GG'/	.	8r	.	8r	.	8r	.
16EE'/	.	.	.	.	.	.	.
16FF'/	.	8r	.	8r	.	8r	.
16DD'/JJ	.	.	.	.	.	.	.
=405	=405	=405	=405	=405	=405	=405	=405
16AA'/LL	.	4.r	.	8g/ 8b-/	.	4.r	.
16FF'/	.	.	.	.	.	.	.
16GG'/	.	.	.	8r	.	.	.
16EEn'/	.	.	.	.	.	.	.
16BB-'/	.	.	.	8r	.	.	.
16GG'/JJ	.	.	.	.	.	.	.
=406	=406	=406	=406	=406	=406	=406	=406
16AA/LL	.	4.r	.	4.r	.	4.r	.
16FF/	.	.	.	.	.	.	.
16C/	.	.	.	.	.	.	.
16AA/	.	.	.	.	.	.	.
16BB-/	.	.	.	.	.	.	.
16GG/JJ	.	.	.	.	.	.	.
=407	=407	=407	=407	=407	=407	=407	=407
16D/LL	.	8r	.	4.r	.	4.r	.
16BB-/	.	.	.	.	.	.	.
16GG/	.	16B-'/LL	.	.	.	.	.
16BB-/	.	16G'/	.	.	.	.	.
16EEn/	.	16c'/	.	.	.	.	.
16C/JJ	.	16En'/JJ	.	.	.	.	.
=408	=408	=408	=408	=408	=408	=408	=408
16AA/LL	.	16F'/LL	.	4.r	.	4.r	.
16C/	.	16A'/	.	.	.	.	.
16FF/	.	16c'/	.	.	.	.	.
16AA/	.	16A'/	.	.	.	.	.
16GG/	.	16B-'/	.	.	.	.	.
16BB-/JJ	.	16G'/JJ	.	.	.	.	.
=409	=409	=409	=409	=409	=409	=409	=409
16BB-/LL	.	16d\LL	.	4.r	.	4.r	.
16D/	.	16B-\	.	.	.	.	.
16AA/	.	16c\	.	.	.	.	.
16C/	.	16A\	.	.	.	.	.
16C/	.	16e-\	.	.	.	.	.
16E-/JJ	.	16c\JJ	.	.	.	.	.
=410	=410	=410	=410	=410	=410	=410	=410
16BB-\LL	.	16d\LL	.	4.r	.	4.r	.
16D\	.	16B-\	.	.	.	.	.
16D\	.	16f\	.	.	.	.	.
16F\	.	16d\	.	.	.	.	.
16C\	.	16e-\	.	.	.	.	.
16E-\JJ	.	16c\JJ	.	.	.	.	.
=411	=411	=411	=411	=411	=411	=411	=411
16E-\LL	.	16g\LL	.	4r	.	8r	.
16G\	.	16e-\	.	.	.	.	.
16E-\	.	16c\	.	.	.	16ee-'\LL	.
16G\	.	16e-\	.	.	.	16cc'\	.
16E-\ 16F\	.	16A\	.	16c'/LL	.	16ff'\	.
16E-\JJ	.	16f\JJ	.	16cc'\JJ	.	16a'\JJ	.
=412	=412	=412	=412	=412	=412	=412	=412
16D/LL	.	16f/LL	.	16b-'\LL	.	16b-'\LL	.
16BB-/	.	16D/JJ	.	16f'/	.	16dd'\	.
16BBn/	.	16D/LL	.	16g'/	.	16ff'\	.
16D/	.	16G/	.	16f'/	.	16dd'\	.
16C/	.	16E-/	.	16g'/	.	16ee-'\	.
16E-/JJ	.	16G/JJ	.	16e-'/JJ	.	16cc'\JJ	.
=413	=413	=413	=413	=413	=413	=413	=413
16C#\LL	.	16En/LL	.	16a/LL	.	16gg\LL	.
16En\	.	16A/	.	16g/	.	16een\	.
16D\	.	16F/	.	16a/	.	16ff\	.
16F\	.	16A/	.	16f/	.	16dd\	.
16D\	.	16F/	.	16b-\	.	16aa-\	.
16F\JJ	.	16B-/JJ	.	16a-/JJ	.	16ff\JJ	.
=414	=414	=414	=414	=414	=414	=414	=414
16E-\LL	.	16G/LL	.	16b-\LL	.	16gg\LL	.
16G\	.	16B-/	.	16g/	.	16ee-\	.
16En\	.	16G/	.	16cc\	.	16bb-\	.
16G\	.	16c/	.	16b-\	.	16gg\	.
16F\	.	16A/	.	16cc\	.	16aan\	.
16A\JJ	.	16c/JJ	.	16a/JJ	.	16ff\JJ	.
=415	=415	=415	=415	=415	=415	=415	=415
16F#\LL	.	16A\LL	.	16dd\LL	.	16ccc\LL	.
16A\	.	16d\	.	16cc\	.	16aa\	.
16G\	.	16B-\	.	16dd\	.	16bb-\	.
16B-\	.	16d\	.	16b-\	.	16gg\	.
16G\	.	16B-\	.	16ee-\	.	16eee-\	.
16B-\JJ	.	16e-\JJ	.	16b-\JJ	.	16eee-\JJ	.
=416	=416	=416	=416	=416	=416	=416	=416
16A'\LL	f	16e-\LL	f	16cc\LL	f	16eee-\LL	f
16c'\	.	16cc\	.	16ee-\	.	16eee-\	.
16e-'\	.	16cc\	.	16ee-\	.	16eee-\	.
16d'\	.	16cc\	.	16ee-\	.	16eee-\	.
16c'\	.	16cc\	.	16ee-\	.	16eee-\	.
16B-'\JJ	.	16cc\JJ	.	16ee-\JJ	.	16eee-\JJ	.
=417	=417	=417	=417	=417	=417	=417	=417
16A'\LL	.	16cc\LL	.	16ee-\LL	.	16eee-\LL	.
16G'\	.	16cc\	.	16ee-\	.	16eee-\	.
16F'\	f	16cc\	f	16ee-\	f	16eee-\	f
16E-'\	.	16cc\	.	16ee-\	.	16eee-\	.
16D'\	.	16cc\	.	16ee-\	.	16eee-\	.
16C'\JJ	.	16cc\JJ	.	16ee-\JJ	.	16eee-\JJ	.
=418	=418	=418	=418	=418	=418	=418	=418
16BB-/LL	.	16g\LL 16b-\	.	16cc\LL 16een\	.	16eeen\LL	.
16AA/	.	16g\ 16b-\	.	16cc\ 16ee\	.	16eee\	.
16GG/	.	16g\ 16b-\	.	16cc\ 16ee\	.	16eee\	.
16D/	.	16g\ 16b-\	.	16cc\ 16ee\	.	16eee\	.
16C/	.	16g\ 16b-\	.	16cc\ 16ee\	.	16eee\	.
16BB-/JJ	.	16g\JJ 16b-\	.	16cc\JJ 16ee\	.	16eee\JJ	.
=419	=419	=419	=419	=419	=419	=419	=419
16AA/LL	ff	16f\ 16a\	ff	16cc\LL 16ff\	ff	16fff\LL	ff
16GG/	.	16B-/LL	.	16f/JJ	.	16fff\	.
16FF/	.	16A/	.	16f/LL	.	16fff\	.
16EE-/	.	16G/	.	16f/	.	16fff\	.
16DD/	.	16F/	.	16g/	.	16fff\	.
16CC/JJ	.	16E-/JJ	.	16a/JJ	.	16fff\JJ	.
=420	=420	=420	=420	=420	=420	=420	=420
16BB-/LL	.	(4.D/	.	(4.d/ 4.b-/	.	(4.b-\	.
16BB-/J	p	.	.	.	.	.	.
8BB-/	.	.	.	.	.	.	.
8BB-/J	.	.	.	.	.	.	.
=421	=421	=421	=421	=421	=421	=421	=421
16BB-/LL	.	4.F/)	p	4.f/)	.	4.dd\)	p
16BB-/J	.	.	.	.	.	.	.
8BB-/	.	.	.	.	.	.	.
8BB-/J	.	.	.	.	.	.	.
=422	=422	=422	=422	=422	=422	=422	=422
16BB-/LL	.	(8G-/L	.	(8e-/L	.	(8cc\L	.
16BB-/	.	.	.	.	.	.	.
16BB-/	.	8A/	.	8g-/	.	8ee-\	.
16BB-/	.	.	.	.	.	.	.
16BB-/	.	8c/J) 8e-/	.	8f/J)	.	8a\J)	.
16BB-/JJ	.	.	.	.	.	.	.
=423	=423	=423	=423	=423	=423	=423	=423
8BB-/	.	8.B-\ 8.d\	.	8.f/	.	8.b-\	.
8r	.	.	.	.	.	.	.
.	.	16r	.	16r	.	16ff'\LL	pp
8r	.	8r	.	8r	.	16bb-'\	.
.	.	.	.	.	.	16ddd'\JJ	.
=424	=424	=424	=424	=424	=424	=424	=424
4.r	.	4.r	.	8r	.	16ccc'\LL	.
.	.	.	.	.	.	16bb-'\	.
.	.	.	.	16r	.	16aa'\JJ	.
.	.	.	.	16gn'/LL	pp	16r	.
.	.	.	.	16a'/	.	8r	.
.	.	.	.	16f'/JJ	.	.	.
=425	=425	=425	=425	=425	=425	=425	=425
4.r	.	8r	.	16b-'\LL	.	4.r	.
.	.	.	.	16dd'\	.	.	.
.	.	16r	.	16ff'\JJ	.	.	.
.	.	16F'/LL	.	16r	.	.	.
.	.	16B-'/	pp	8r	.	.	.
.	.	16d'/JJ	.	.	.	.	.
=426	=426	=426	=426	=426	=426	=426	=426
8r	.	16c'/LL	.	4.r	.	4.r	.
.	.	16A'/	.	.	.	.	.
16r	.	16B-'/JJ	.	.	.	.	.
16GG'/LL	pp	16r	.	.	.	.	.
16C'/	.	8r	.	.	.	.	.
16EEn'/JJ	.	.	.	.	.	.	.
=427	=427	=427	=427	=427	=427	=427	=427
8FF/	.	8r	.	4r	.	8r	.
8r	.	(8F/L	p	.	.	(8ff\L	p
8r	.	8G/J)	.	(8b-\	p	8ee-\J)	.
=428	=428	=428	=428	=428	=428	=428	=428
*clefC4	*clefG2	*	*	*	*	*	*
(4.c\	p	16A-/LL	.	(4.a-/)	.	[4.ee-\	.
.	.	16A-/J	.	.	.	.	.
.	.	8A-/	.	.	.	.	.
.	.	8A-/J	.	.	.	.	.
=429	=429	=429	=429	=429	=429	=429	=429
4.e-\)	.	16A-/LL	.	4.cc\	.	4.ee-\_	.
.	.	16A-/J	.	.	.	.	.
.	.	8A-/	.	.	.	.	.
.	.	8A-/J	.	.	.	.	.
=430	=430	=430	=430	=430	=430	=430	=430
(8d-\L	.	16A-/LL	.	8b-\L	.	4.ee-\_	.
.	.	16A-/	.	.	.	.	.
8f\	.	16A-/	.	8dd-\)	.	.	.
.	.	16A-/	.	.	.	.	.
8B-\J)	.	16A-/	.	8g/J	.	.	.
.	.	16A-/JJ	.	.	.	.	.
=431	=431	=431	=431	=431	=431	=431	=431
8.c\	.	8.A-/	.	8.a-/	.	16.ee-\LL]	.
.	.	.	.	.	.	32dd\JJk	.
.	.	.	.	.	.	8ee-\	.
*clefF4	*clefF4	*	*	*	*	*	*
16EE-/LL	pp	16r	.	16r	.	.	.
16AA-/	.	8r	.	8r	.	8r	.
16C/JJ	.	.	.	.	.	.	.
=432	=432	=432	=432	=432	=432	=432	=432
16BB-'/LL	.	8r	.	4.r	.	4.r	.
16AA-'/	.	.	.	.	.	.	.
16GG'/JJ	.	16r	.	.	.	.	.
16r	.	16F'/LL	.	.	.	.	.
8r	.	16G'/	.	.	.	.	.
.	.	16E-'/JJ	.	.	.	.	.
=433	=433	=433	=433	=433	=433	=433	=433
4.r	.	16G-'/LL	.	8r	.	4.r	.
.	.	16c'/	.	.	.	.	.
.	.	16e-'/JJ	.	16r	.	.	.
.	.	16r	.	16ee-'\LL	.	.	.
.	.	8r	.	16aa-'\	.	.	.
.	.	.	.	16ccc'\JJ	.	.	.
=434	=434	=434	=434	=434	=434	=434	=434
4.r	.	8r	.	16bb-'\LL	.	8r	.
.	.	.	.	16gg'\	.	.	.
.	.	16r	.	16aa-'\	.	16r	.
.	.	16a-'\LL	.	16cc'\	.	16fff'\LL	.
.	.	16b-'\	.	16g'/	.	16ggg'\	.
.	.	16B-'\JJ	.	16a-'/JJ	.	16ddd'\JJ	.
=435	=435	=435	=435	=435	=435	=435	=435
4.r	.	8e-\	.	(8g/L	.	(4eee-\	.
.	.	8r	.	8ee-\	.	.	.
.	.	8r	.	8dd-\J)	.	8ddd-\)	.
=436	=436	=436	=436	=436	=436	=436	=436
16c-\LL	.	[16d#\LL 16f#\	.	(4.cc-\	.	(4.ccc-\	.
16c-\J	.	16d#\J] 16f#\	.	.	.	.	.
8c-\	.	8d#\ 8f#\	.	.	.	.	.
8c-\J	.	8d#\J 8f#\	.	.	.	.	.
=437	=437	=437	=437	=437	=437	=437	=437
16c-\LL	.	16e-\LL 16f#\	.	4.ee-\)	.	4.eee-\)	.
16c-\J	.	16e-\J 16f#\	.	.	.	.	.
8c-\	.	8e-\ 8f#\	.	.	.	.	.
8c-\J	.	8e-\J 8f#\	.	.	.	.	.
=438	=438	=438	=438	=438	=438	=438	=438
16c-\LL	.	16en\LL 16f#\	.	(8dd-\L	.	(8ddd-\L	.
16c-\	.	16e\ 16f#\	.	.	.	.	.
16c-\	.	16e\ 16f#\	.	8ff-\	.	8fff-\	.
16c-\	.	16e\ 16f#\	.	.	.	.	.
16c-\	.	16e\ 16f#\	.	8b-\J)	.	8bb-\J)	.
16c-\JJ	.	16e\JJ 16f#\	.	.	.	.	.
=439	=439	=439	=439	=439	=439	=439	=439
8c-\	.	8d#\ 8f#\	.	(4cc-\	.	(4ccc-\	.
8C-/L	.	8E-/L	.	.	.	.	.
8C-/J	.	8E-/J	.	8b-\)	.	8bb-\)	.
=440	=440	=440	=440	=440	=440	=440	=440
[4.Cn/	f	[4.E-/	f	[4.f/ [4.a/	f	[4.aa\	f
=441	=441	=441	=441	=441	=441	=441	=441
4.C/]	.	4.E-/]	.	4.f/] 4.a/]	.	4.aa\]	.
=442	=442	=442	=442	=442	=442	=442	=442
*	*	*	*	*^	*	*	*
(8BB-/L	p	(8D/L	p	(8b-/L	4.f\	.	(8bb-\L	p
8C/	.	8E-/	.	8a/	.	.	8aa\	.
8BB-/J	.	8D/J	.	8b-/J	.	.	8bb-\J	.
*	*	*	*	*v	*v	*	*	*
=443	=443	=443	=443	=443	=443	=443	=443
8EE-/L	.	8G/L	.	16.ee-\LL	.	16.eee-\LL	.
.	.	.	.	32cc\JJk	.	32ccc\Jk	.
8FF/	.	8D/	.	8b-/L	.	8bb-\	.
8EE-/J)	.	8C/J)	.	8a/J)	.	8aa\J)	.
=444	=444	=444	=444	=444	=444	=444	=444
(8DD/L	.	(8F/L	.	(8ff\L	.	(8fff\L	.
*	*	*^	*	*	*	*	*
8AA/	.	8c/	4F\	.	8ee-\	.	8eee-\	.
8BB-/J	.	8B-/J	.	.	8dd\J	.	8ddd\J	.
*	*	*v	*v	*	*	*	*	*
=445	=445	=445	=445	=445	=445	=445	=445
8E-/L	.	16.e-\LL	.	16.gg\LL	.	16.ggg\LL	.
.	.	32c\Jk	.	32ee-\JJk	.	32eee-\JJk	.
8F/	.	8B-\	.	8dd\L	.	8ddd\L	.
8FF/J)	.	8A\J)	.	8cc\J)	.	8ccc\J)	.
=446	=446	=446	=446	=446	=446	=446	=446
16FF#/LL	ff	16e-\LL	ff	16a\LL 16cc\	ff	16a\LL 16ccc\	.
16FF#/J	.	16e-\J	.	16a\J 16cc\	.	16a\J 16ccc\	.
8FF#/J	.	8e-\J	.	8a\J 8cc\	.	8a\J 8ccc\	.
8r	.	8r	.	8r	.	8r	.
=447	=447	=447	=447	=447	=447	=447	=447
4.r	.	4.r	.	4.r	.	4.r	.
=448	=448	=448	=448	=448	=448	=448	=448
16E-\LL	p	16f#\LL	p	16c/LL	p	16a/LL	p
16E-\J	.	16f#\J	.	16c/J	.	16a/J	.
8E-\J	.	8f#\J	.	8B/J	.	8a/J	.
8r	.	8r	.	8r	.	8r	.
=449	=449	=449	=449	=449	=449	=449	=449
4.r	.	4.r	.	4.r	.	4.r	.
=450	=450	=450	=450	=450	=450	=450	=450
(8En/L	.	(8Bn/L	.	(8Bn/L	.	(8g/L	.
8BBn/	.	8A/	.	8d#/	.	8f#/	.
8C/J	.	8G/J	.	8en/J	.	8en/J	.
=451	=451	=451	=451	=451	=451	=451	=451
8AA/L	.	8c/L	.	8c/L	.	16.a/LL	.
.	.	.	.	.	.	32f/JJk	.
8BBn/	.	8G/	.	8Bn/)	.	8en/L	.
8AA/J)	.	8F#/J)	.	8B/J	.	8d#/J)	.
=452	=452	=452	=452	=452	=452	=452	=452
(8GG/L	.	(8En/L	.	(8Bn/L	.	(8bn/L	.
8FF#/	.	8D#/	.	8B/	.	8a/	.
8EEn/J	.	[8E/J	.	8B/J	.	8g/J	.
=453	=453	=453	=453	=453	=453	=453	=453
8AA/L	.	16.E/LL]	.	16.c/LL	.	16.cc/LL	.
.	.	32c/JJk	.	32f#/JJk	.	32a/JJk	.
8BBn/	.	8Bn/L	.	8en/L	.	8g/L	.
8BB/J)	.	8A/J)	.	8d#/J)	.	8f#/J)	.
=454	=454	=454	=454	=454	=454	=454	=454
16C/LL	pp	16A/LL	pp	16e-/LL	pp	16g-/LL	pp
16C/	.	16A/	.	16e-/	.	16g-/	.
16C/	.	16A/	.	16e-/	.	16g-/	.
16C/	.	16A/	.	16e-/	.	16g-/	.
16C/	.	16A/	.	16e-/	.	16g-/	.
16C/JJ	.	16A/JJ	.	16e-/JJ	.	16g-/JJ	.
=455	=455	=455	=455	=455	=455	=455	=455
16C-/LL	.	16A/LL	.	16e-/LL	.	16g-/LL	.
16C-/	.	16A/	.	16e-/	.	16g-/	.
16C-/	.	16A/	.	16e-/	.	16g-/	.
16C-/	pp	16A/	pp	16e-/	pp	16g-/	pp
16C-/	.	16A/	.	16e-/	.	16g-/	.
16C-/JJ	.	16A/JJ	.	16e-/JJ	.	16g-/JJ	.
=456	=456	=456	=456	=456	=456	=456	=456
16C-/LL	.	16B-/LL	.	16e-/LL	.	16g-/LL	.
16BB-/	.	16B-/	.	16e-/	.	16g-/	.
16AA/	.	16c/	.	16e-/	.	16g-/	.
16AA/	.	16c/	.	16e-/	.	16g-/	.
16AA-/	.	16c/	.	16e-/	.	16g-/	.
16AA-/JJ	.	16c/JJ	.	16e-/JJ	.	16g-/JJ	.
=457	=457	=457	=457	=457	=457	=457	=457
16GG/LL	.	16c\LL	.	16e-/LL	.	16gn/LL	.
16GG/	.	16c\	.	16e-/	.	16g/	.
16GG-/	.	16c\	.	16e-/	.	16a-/	.
16GG-/	.	16c\	.	16e-/	.	16a-/	.
16FF/	.	16c\	.	16e-/	.	16an/	.
16FF/JJ	.	16c\JJ	.	16e-/JJ	.	16a/JJ	.
=458	=458	=458	=458	=458	=458	=458	=458
16F\LL	.	16c\LL	.	16a/LL	.	16ee-\LL	.
16F\	.	16c\	.	16a/	.	16ee-\	.
16F\	.	16c\	.	16a/	.	16ee-\	.
16F\	.	16c\	.	16a/	.	16ee-\	.
16F\	.	16c\	.	16a/	.	16ee-\	.
16F\JJ	.	16c\JJ	.	16a/JJ	.	16ee-\JJ	.
=459	=459	=459	=459	=459	=459	=459	=459
16FF/LL	.	16c\LL 16e-\	.	16f\LL 16ee-\	.	16cc\LL 16aa\	.
16FF/	.	16c\ 16e-\	.	16f\ 16ee-\	.	16cc\ 16aa\	.
16FF/	.	16c\ 16e-\	.	16f\ 16ee-\	.	16cc\ 16aa\	.
16FF/	.	16c\ 16e-\	.	16f\ 16ee-\	.	16cc\ 16aa\	.
16FF/	.	16c\ 16e-\	.	16f\ 16ee-\	.	16cc\ 16aa\	.
16FF/JJ	.	16c\JJ 16e-\	.	16f\JJ 16ee-\	.	16cc\JJ 16aa\	.
=460	=460	=460	=460	=460	=460	=460	=460
16BB-/LL	.	16B-/LL 16d/	.	8f/ 8dd/	.	16dd\LL 16bb-\	.
16BB-/	.	16D/	.	.	.	16bb-\	.
16BB-/	.	16D/	.	8r	.	16bb-\	.
16BB-/	.	16D/	.	.	.	16ff\	.
16BB-/	.	16D/	.	8r	.	16bb-\	.
16BB-/JJ	.	16D/JJ	.	.	.	16ddd\JJ	.
=461	=461	=461	=461	=461	=461	=461	=461
16E-\LL	.	16F/LL	.	16cc\LL	.	16ccc\LL	.
16E-\	.	16F/	.	16cc\	.	16bb-\	.
16E-\	.	16F/	.	16cc\JJ	.	16aa\	.
16E-\	.	16F/	.	16r	.	16gg\	.
16E-\	.	16F/	.	8r	.	16aa\	.
16E-\JJ	.	16F/JJ	.	.	.	16ff\JJ	.
=462	=462	=462	=462	=462	=462	=462	=462
16D\LL	.	16F/LL	.	16b-/LL	.	16bb-\LL	.
16D\	.	16F/	.	16b-/	.	16ddd\	.
16D\	.	16F/	.	16b-/	.	16fff\	.
16D\	.	16F/	.	16f/	.	16fff\	.
16D\	.	16F/	.	16b-/	.	16fff\	.
16D\JJ	.	16F/JJ	.	16dd/JJ	.	16fff\JJ	.
=463	=463	=463	=463	=463	=463	=463	=463
16C/LL	.	16E-/LL	.	16ee-\LL	.	16fff\LL	.
16C/	.	16E-/	.	16dd\	.	16fff\	.
16C/	.	16E-/	.	16cc\	.	16fff\	.
16C/	.	16E-/	.	16b-\	.	16fff\	.
16C/	.	16E-/	.	16cc\	.	16fff\	.
16C/JJ	.	16E-/JJ	.	16a\JJ	.	16fff\JJ	.
=464	=464	=464	=464	=464	=464	=464	=464
16BB-/LL	.	16D/LL	.	16dd\LL 16ff\	.	16fff\LL	.
16BB-/	.	16B-/	.	16dd\ 16ff\	.	16fff\	.
16BB-/	.	16B-/	.	16dd\ 16ff\	.	16fff\	.
16FF/	.	16F/	.	16dd\ 16ff\	.	16fff\	.
16BB-/	.	16B-/	.	16dd\ 16ff\	.	16fff\	.
16D/JJ	.	16d/JJ	.	16dd\JJ 16ff\	.	16fff\JJ	.
=465	=465	=465	=465	=465	=465	=465	=465
16C/LL	.	16c/LL	.	16ee-\LL 16ff\	.	[4.fff\	.
16BB-/	.	16B-/	.	16ee-\ 16ff\	.	.	.
16AA/	.	16A/	.	16ee-\ 16ff\	.	.	.
16GG/	.	16G/	.	16ee-\ 16ff\	.	.	.
16AA/	.	16A/	.	16ee-\ 16ff\	.	.	.
16FF/JJ	.	16F/JJ	.	16ee-\JJ 16ff\	.	.	.
=466	=466	=466	=466	=466	=466	=466	=466
16BB-\LL	.	16B-\LL	.	16dd\LL 16ff\	.	4.fff\_	.
16D\	.	16B-\	.	16dd\ 16ff\	.	.	.
16F\JJ	.	16B-\	.	16dd\ 16ff\	.	.	.
16r	.	16B-\	.	16dd\ 16ff\	.	.	.
8r	.	16d\	.	16dd\ 16ff\	.	.	.
.	.	16f\JJ	.	16dd\JJ 16ff\	.	.	.
=467	=467	=467	=467	=467	=467	=467	=467
4.r	.	4.r	.	16b-\LL	.	8.fff\]	.
.	.	.	.	16dd\	.	.	.
.	.	.	.	16ff\JJ	.	.	.
.	.	.	.	16r	.	16bb-\LL	.
.	.	.	.	8r	.	16ddd\	.
.	.	.	.	.	.	16fff\JJ	.
=468	=468	=468	=468	=468	=468	=468	=468
4.r	.	4.r	.	16b-\LL	.	8bbb-\	.
.	.	.	.	16dd\	.	.	.
.	.	.	.	16ff\JJ	.	8r	.
.	.	.	.	16r	.	.	.
.	.	.	.	8r	.	8r	.
=469	=469	=469	=469	=469	=469	=469	=469
8F\	.	8F/ 8c/	.	8c/ 8e-/	.	8e-/ 8a/	.
8r	.	8r	.	8r	.	8r	.
8r	.	8r	.	8r	.	8r	.
=470	=470	=470	=470	=470	=470	=470	=470
4.r	.	4.r	.	4.r	.	16gg-\LL	.
.	.	.	.	.	.	16gg-\J	.
.	.	.	.	.	.	8gg-\J	.
.	.	.	.	.	.	8r	.
=471	=471	=471	=471	=471	=471	=471	=471
4.r	.	4.r	.	16en/LL	.	4.r	.
.	.	.	.	16e/J	.	.	.
.	.	.	.	8e/J	.	.	.
.	.	.	.	8r	.	.	.
=472	=472	=472	=472	=472	=472	=472	=472
4.r	.	16F/LL	.	16en/LL	.	4.r	.
.	.	16F/J	.	16e/J	.	.	.
.	.	8F/J	.	8e/J	.	.	.
.	.	8r	.	8r	.	.	.
=473	=473	=473	=473	=473	=473	=473	=473
16BB-/LL	ff	16F/LL	ff	16B-/LL	ff	16B-/LL 16d/	ff
16BB-/	.	16F/	.	16B-/	.	16B-/ 16d/	.
16BB-/	.	16F/	.	16B-/	.	16B-/ 16d/	.
16BB-/	.	16F/	.	16B-/	.	16B-/ 16d/	.
16BB-/	.	16F/	.	16B-/	.	16B-/ 16d/	.
16BB-/JJ	.	16F/JJ	.	16B-/JJ	.	16B-/JJ 16d/	.
=474	=474	=474	=474	=474	=474	=474	=474
4.B-\	.	4.d\ 4.f\	.	4.d/ 4.b-/	.	4.d/ 4.dd/	.
=475	=475	=475	=475	=475	=475	=475	=475
4.BB-/	.	4.F/ 4.B-/	.	4.dd\ 4.bb-\	.	4.ddd\	.
=476	=476	=476	=476	=476	=476	=476	=476
4BB-/	f	4F/	f	4B-/	f	4d/	f
8r	.	8r	.	8r	.	8r	.
==	==	==	==	==	==	==	==
*-	*-	*-	*-	*-	*-	*-	*-
!!!ENC: Craig Stuart Sapp
!!!END: 2004/09/09/
